!!!!SEGMENT: pl-wumfc--n18053--004_noskowski-zygmunt--livia-quintilla-prolog-scena-iii.krn
!!!cenid: 18xx:4220
!!!COM: Noskowski, Zygmunt
!!!COM-rismID: pe106604
!!!CDT: 1846/05/02-1909/07/23
!!!CNT: Polish
!!!OPR: Livia Quintilla
!!!OTL: Prolog - Scena III
!!!OMV: 004
!!!PDT: 1898
!!!AGN: Secular; Opera
!!!SMS-siglum: PL-Wumfc
!!!SMS-shelfmark: N18053
!!!SMS-shelfwork: 001-004 M
!!!SMS-variant:
!!!SMS-altvar:
!!!NIFC-rismSourceID: 1001161204
!!!NIFC-rismChildID: 1001161204
!!!NIFC-islandoraID: pl-wumfc:1491
!!!URL-pdf-islandora: https://repozytorium.nifc.pl/islandora/object/pl-wumfc:1491/datastream/PDF/view
!!!URL-scan: https://polish.musicsources.pl/pl/lokalizacje/galeria/druki-muzyczne/11843/14 @EN{Scan on Polish Music Sources Website} @PL{Skany w portalu Dziedzictwo Muzyki Polskiej w otwartym dostępie}
!!!ONB-nifc: Skany 0014-0018
!!!AIN: 1 barit 1 bass 2 piano
!!!key: a
!!!OMD: Maestoso molto.
**kern	**kern	**dynam	**kern	**text	**dynam	**kern	**text	**dynam
*part4	*part3	*part3	*part2	*part2	*part2	*part1	*part1	*part1
*staff4	*staff3	*	*staff2	*staff2	*	*staff1	*staff1	*
*I"PIANO.	*I"PIANO.	*	*I"Silva.	*	*	*I"PROCULUS.	*	*
*	*	*	*I'S.	*	*	*I'P.	*	*
*Ipiano	*Ipiano	*	*Ibass	*	*	*Ibarit	*	*
*ICklav	*ICklav	*	*ICvox	*	*	*ICvox	*	*
*IGacomp	*IGacomp	*	*IGsolo	*	*	*IGsolo	*	*
*clefF4	*clefG2	*	*clefF4	*	*	*clefF4	*	*
*k[]	*k[]	*	*k[]	*	*	*k[]	*	*
*a:	*a:	*	*a:	*	*	*a:	*	*
*M4/4	*M4/4	*	*M4/4	*	*	*M4/4	*	*
*met(c)	*met(c)	*	*met(c)	*	*	*met(c)	*	*
=1	=1	=1	=1	=1	=1	=1	=1	=1
!	!LO:TX:b:i:t=molto marcato	!	!	!	!	!	!	!
4..AA 4..AAA^>/	4..a 4..e 4..c 4..A^>/	.	1ryy	.	.	1r	.	.
16EE 16EEE/	16b 16g 16e 16B/	.	.	.	.	.	.	.
4..AA 4..AAA^>/	4..a 4..e 4..c 4..A^>/	.	.	.	.	.	.	.
16E 16EE/	16g 16e 16B 16G/	.	.	.	.	.	.	.
=2	=2	=2	=2	=2	=2	=2	=2	=2
4..D 4..DD^>/	4..a 4..f 4..d 4..A^>/	.	1ryy	.	.	1r	.	.
16C 16CC/	16cc 16g 16e 16c/	.	.	.	.	.	.	.
4C 4CC^>/	4cc 4g 4e 4c/	.	.	.	.	.	.	.
8.r	8.r	.	.	.	.	.	.	.
16AA 16AAA/	16e 16c 16A 16E/	.	.	.	.	.	.	.
=3	=3	=3	=3	=3	=3	=3	=3	=3
4..FF 4..FFF^>/	4..f 4..c 4..A 4..F^>/	.	1ryy	.	.	1r	.	.
16AA 16AAA/	16e 16c 16A 16E/	.	.	.	.	.	.	.
4..D 4..DD^/	4..f 4..d 4..A 4..F^>/	.	.	.	.	.	.	.
16C 16CC/	16g 16e 16c 16G/	.	.	.	.	.	.	.
=4	=4	=4	=4	=4	=4	=4	=4	=4
*tremolo	*	*	*	*	*	*	*	*
32CC/LLL	[1g [1e [1c [1G	.	1ryy	.	.	1r	.	.
32C/	.	.	.	.	.	.	.	.
32CC/	.	.	.	.	.	.	.	.
32C/	.	.	.	.	.	.	.	.
32CC/	.	.	.	.	.	.	.	.
32C/	.	.	.	.	.	.	.	.
32CC/	.	.	.	.	.	.	.	.
32C/	.	.	.	.	.	.	.	.
32CC/	.	.	.	.	.	.	.	.
32C/	.	.	.	.	.	.	.	.
32CC/	.	.	.	.	.	.	.	.
32C/	.	.	.	.	.	.	.	.
32CC/	.	.	.	.	.	.	.	.
32C/	.	.	.	.	.	.	.	.
32CC/	.	.	.	.	.	.	.	.
32C/JJJ	.	.	.	.	.	.	.	.
32CC/LLL	.	.	.	.	.	.	.	.
32C/	.	.	.	.	.	.	.	.
32CC/	.	.	.	.	.	.	.	.
32C/	.	.	.	.	.	.	.	.
32CC/	.	.	.	.	.	.	.	.
32C/	.	.	.	.	.	.	.	.
32CC/	.	.	.	.	.	.	.	.
32C/	.	.	.	.	.	.	.	.
32CC/	.	.	.	.	.	.	.	.
32C/	.	.	.	.	.	.	.	.
32CC/	.	.	.	.	.	.	.	.
32C/	.	.	.	.	.	.	.	.
32CC/	.	.	.	.	.	.	.	.
32C/	.	.	.	.	.	.	.	.
32CC/	.	.	.	.	.	.	.	.
32C/JJJ	.	.	.	.	.	.	.	.
*Xtremolo	*	*	*	*	*	*	*	*
=5	=5	=5	=5	=5	=5	=5	=5	=5
4CC/	4g] 4e] 4c] 4G/]	.	1ryy	.	.	2r	.	.
4r	4r	.	.	.	.	.	.	.
2r	2r	.	.	.	.	4r	.	.
!	!	!	!	!	!	!	!	!LO:DY:a:rj
.	.	.	.	.	.	8.c\	Pa-	f
.	.	.	.	.	.	16A\	-nią	.
!!LO:LB:g=original
=6	=6	=6	=6	=6	=6	=6	=6	=6
2r	2r	.	1ryy	.	.	4G\	twą	.
.	.	.	.	.	.	8.E\	wi-	.
.	.	.	.	.	.	16G\	-dzieć	.
4r	4r	.	.	.	.	[4C/	chcę	.
8.r	8.r	.	.	.	.	8C/]	.	.
.	.	.	.	.	.	8r	.	.
!	!	!LO:DY:rj	!	!	!	!	!	!
16e 16c\	16gg 16ee 16cc 16g\	p	.	.	.	.	.	.
=7	=7	=7	=7	=7	=7	=7	=7	=7
4..e 4..A\	4..aa 4..ee 4..cc#X 4..a\	.	1ryy	.	.	2r	.	.
16g 16G\	16bb 16gg 16dd 16b\	.	.	.	.	.	.	.
4..e 4..A\	4..aa 4..ee 4..cc# 4..a\	.	.	.	.	4r	.	.
.	.	.	.	.	.	8E\	Wszak	.
.	.	.	.	.	.	8E\	mnie	.
16e\	16gg 16ee 16b 16g\	.	.	.	.	.	.	.
=8	=8	=8	=8	=8	=8	=8	=8	=8
4..f#X 4..d\	4..aa 4..ff#X 4..dd 4..a\	.	1ryy	.	.	[2A\	te-	.
16e 16A\	16cccn 16aa 16ee 16ccn\	.	.	.	.	.	.	.
4e 4A\	4ccc 4aa 4ee 4cc\	.	.	.	.	8A\]	.	.
.	.	.	.	.	.	8B\	-raz	.
8.r	8.r	.	.	.	.	8c\	przy-	.
.	.	.	.	.	.	8B\	-jąć	.
*clefG2	*	*	*	*	*	*	*	*
16g#X 16e/	16ee 16b\	.	.	.	.	.	.	.
=9	=9	=9	=9	=9	=9	=9	=9	=9
4..a 4..d/	4..ff 4..dd\	.	1ryy	.	.	4d\	ra-	.
.	.	.	.	.	.	4F\	-czy.	.
16A/	16ee 16cc#X 16a\	.	.	.	.	.	.	.
4..d/	4..ff 4..dd 4..a\	.	.	.	.	2r	.	.
16d 16Gn/	16ggn 16dd 16b\	.	.	.	.	.	.	.
=10	=10	=10	=10	=10	=10	=10	=10	=10
!	!	!	!LO:TX:a:B:t=Silva.	!	!	!	!	!
4d 4G/	4gg 4dd 4b\	.	8r	.	.	1ryy	.	.
.	.	.	4BB/	Chwi-	.	.	.	.
4r	4r	.	.	.	.	.	.	.
.	.	.	8C/	-lę	.	.	.	.
2r	2r	.	8E\	racz	.	.	.	.
.	.	.	8D\	się	.	.	.	.
.	.	.	8BB/	wstrzy-	.	.	.	.
.	.	.	8D\	-mać	.	.	.	.
!!LO:LB:g=original
=11	=11	=11	=11	=11	=11	=11	=11	=11
2r	2r	.	2G\	pa-	.	1ryy	.	.
4r	4r	.	4GG/	-nie!	.	.	.	.
8.r	8.r	.	4r	.	.	.	.	.
*clefF4	*	*	*	*	*	*	*	*
!	!	!LO:DY:rj	!	!	!	!	!	!
16EE-X\	16B-X< 16G< 16E-X</	ff	.	.	.	.	.	.
=12	=12	=12	=12	=12	=12	=12	=12	=12
!	!	!	!	!	!	!LO:TX:a:B:t=Proculus.	!	!LO:DY:a
4..AA-X\	4..c< 4..A-X< 4..E-X</	.	1ryy	.	.	4c\	Cze-	f
.	.	.	.	.	.	8.c\	-kać	.
16GG\	16d< 16B-X< 16G</	.	.	.	.	16d\	nie	.
4..C\	4..c< 4..G< 4..E-</	.	.	.	.	4e-X\	mo-	.
.	.	.	.	.	.	8E-X\	-gę.	.
.	.	.	.	.	.	8r	.	.
16GG\	16B-< 16G< 16D</	.	.	.	.	.	.	.
=13	=13	=13	=13	=13	=13	=13	=13	=13
4..FF\	4..c< 4..A-X< 4..F</	.	1ryy	.	.	2r	.	.
16EE-X\	16e-X 16B-X< 16G</	.	.	.	.	.	.	.
4EE-\	4e- 4B-< 4G</	.	.	.	.	4r	.	.
4r	4r	.	.	.	.	8.e-X\	Po-	.
.	.	.	.	.	.	16c\	-wiedz	.
=14	=14	=14	=14	=14	=14	=14	=14	=14
1r	1r	.	1ryy	.	.	4B-X\	jej,	.
.	.	.	.	.	.	8.r	.	.
.	.	.	.	.	.	16B-\	że	.
.	.	.	.	.	.	4G\	zgło-	.
.	.	.	.	.	.	4B-\	-szę	.
=15	=15	=15	=15	=15	=15	=15	=15	=15
4r	2e-X/	p	1ryy	.	.	2E-X\	się,	.
8.E-X/L	.	.	.	.	.	.	.	.
16C-X/Jk	.	.	.	.	.	.	.	.
8.BB-X/L	2e-X 2d-X/	.	.	.	.	4r	.	.
16BB-/Jk	.	.	.	.	.	.	.	.
8.GG/L	.	.	.	.	.	8r	.	.
.	.	.	.	.	.	8E-\	Że	.
16BB-/Jk	.	.	.	.	.	.	.	.
!!LO:LB:g=original
=16	=16	=16	=16	=16	=16	=16	=16	=16
4AA-X/	4e-X 4c-X/	.	1ryy	.	.	4..A-X\	jesz-	.
!	!	!LO:DY:rj	!	!	!	!	!	!
4A-X 4E-X 4AA-\	4cc-X 4a-X 4e- 4c-/	sf	.	.	.	.	.	.
.	.	.	.	.	.	16c-X\	-cze	.
4r	4r	.	.	.	.	4..B-X\	raz	.
!	!	!LO:DY:rj	!	!	!	!	!	!
4G-X 4BB-X 4EE-X/	4b-X 4g-X 4e- 4B-X/	sf	.	.	.	.	.	.
.	.	.	.	.	.	16G-X\	o-	.
=17	=17	=17	=17	=17	=17	=17	=17	=17
4r	4r	.	1ryy	.	.	4..c-X\	-sta-	.
!	!	!LO:DY:rj	!	!	!	!	!	!
4c-X 4G-X 4C-X\	4ee-X 4cc-X 4g-X 4e-X/	sf	.	.	.	.	.	.
.	.	.	.	.	.	16e-X\	-tni	.
!	!	!LO:DY:rj	!	!	!	!	!	!
4B-X 4D-X 4GG-X\	4dd-X 4b-X 4g-X 4d-X/	sf	.	.	.	4d-X\	mnie	.
4r	4r	.	.	.	.	8B-X\	tu	.
.	.	.	.	.	.	8G-X\	zo-	.
=18	=18	=18	=18	=18	=18	=18	=18	=18
8r	8r	.	1ryy	.	.	4f-X\	-ba-	.
8d-X 8A-X 8D-X^\	8ff-X 8dd-X 8a-X 8f-X^\	.	.	.	.	.	.	.
4c-X 4E-X 4AA-X\	4ee-X 4cc-X 4a- 4e-X/	sf	.	.	.	4e-X\	-czy.	.
4r	4r	.	.	.	.	2r	.	.
8.r	8.r	.	.	.	.	.	.	.
!	!	!LO:DY:rj	!	!	!	!	!	!
16En 16EE/	16bn 16g#X 16en 16Bn/	f	.	.	.	.	.	.
=19	=19	=19	=19	=19	=19	=19	=19	=19
4..C#X 4..CC#X/	4..cc#X 4..g#X 4..e 4..c#X/	.	1ryy	.	.	2r	.	.
16GG#X 16GGG#X/	16dd#X 16b 16g# 16d#X/	.	.	.	.	.	.	.
4C# 4CC#/	4cc# 4g# 4e 4c#/	.	.	.	.	4r	.	.
4r	4r	.	.	.	.	8r	.	.
.	.	.	.	.	.	8G#X\	Po-	.
=20	=20	=20	=20	=20	=20	=20	=20	=20
2r	2r	.	1ryy	.	.	4.c#X\	-słu-	.
.	.	.	.	.	.	8B\	-chaj	.
4r	4r	.	.	.	.	2G#X\	mnie!	.
8.r	8.r	.	.	.	.	.	.	.
!	!	!LO:DY:rj	!	!	!	!	!	!
16C#X/	16e 16c#X 16G/	p	.	.	.	.	.	.
!!LO:LB:g=original
=21	=21	=21	=21	=21	=21	=21	=21	=21
4..FF#X/	4..f#X 4..c#X 4..A/	.	1ryy	.	.	1r	.	.
16AA/	16e 16c# 16A/	.	.	.	.	.	.	.
4..Dn\	4..f#X 4..dn 4..A/	.	.	.	.	.	.	.
16C#X/	16g#X 16e 16c#/	.	.	.	.	.	.	.
=22	=22	=22	=22	=22	=22	=22	=22	=22
4C#X/	4g#X 4e 4c#X/	.	1ryy	.	.	4r	.	.
4r	4r	.	.	.	.	8r	.	.
!	!	!	!	!	!	!	!	!LO:DY:a
.	.	.	.	.	.	8E\	Pow-	p
2r	2r	.	.	.	.	8D#X\	-tó-	.
.	.	.	.	.	.	8E\	-rzysz	.
.	.	.	.	.	.	8F#X\	jej	.
.	.	.	.	.	.	8G#X\	te	.
=23	=23	=23	=23	=23	=23	=23	=23	=23
4r	4r	.	1ryy	.	.	4A\	sło-	.
8.r	8.r	.	.	.	.	4G#X\	-wa.	.
(16G#X 16E\	(16e 16B/	p	.	.	.	.	.	.
4..A 4..D\	4.f#X 4.d/	.	.	.	.	2r	.	.
.	8g#X 8e 8c#X/)	.	.	.	.	.	.	.
16C/)	.	.	.	.	.	.	.	.
=24	=24	=24	=24	=24	=24	=24	=24	=24
4C#X/	4g#X 4e 4c#X/	.	1ryy	.	.	4r	.	.
4r	4r	.	.	.	.	8r	.	.
!	!	!	!	!	!	!	!	!LO:DY:a:rj
.	.	.	.	.	.	8G#X\	O-	p
2r	2r	.	.	.	.	4.G#\	-kru-	.
.	.	.	.	.	.	8F#X\	-tną	.
=25	=25	=25	=25	=25	=25	=25	=25	=25
4r	4r	.	1ryy	.	.	(4..E\	zem-	<
!	!	!LO:DY:rj	!	!	!	!	!	!
4C#X^^</	4e 4c#X 4G#X/	f	.	.	.	.	.	.
.	.	.	.	.	.	16F#X\)	.	[
4GG#X/	4g#X 4d#X 4B 4G#^^/	.	.	.	.	2G#X\	-stę	.
4r	4r	.	.	.	.	.	.	.
!!LO:PB:g=original
=26	=26	=26	=26	=26	=26	=26	=26	=26
!	!	!	!	!	!	!	!	!LO:DY:a
1r	1r	.	1ryy	.	.	2d#X\	ścią-	mf
.	.	.	.	.	.	4G\	-gnie	.
!	!	!	!	!	!	!	!	!LO:DY:a:rj
.	.	.	.	.	.	8B\	jej	f
.	.	.	.	.	.	8d#\	od-	.
=27	=27	=27	=27	=27	=27	=27	=27	=27
2r	2r	.	1ryy	.	.	[1e	-mo-	.
4r	4r	.	.	.	.	.	.	.
8.r	8.r	.	.	.	.	.	.	.
!	!	!LO:DY:rj	!	!	!	!	!	!
16E 16EE/	16g#X 16e 16B 16G#X/	f	.	.	.	.	.	.
=28	=28	=28	=28	=28	=28	=28	=28	=28
4..AA 4..AAA/	4..a 4..e 4..cn 4..A/	.	1ryy	.	.	2e\]	.	.
16EE 16EEE/	16b 16g#X 16e 16B/	.	.	.	.	.	.	.
4..AA 4..AAA/	4..a 4..e 4..c 4..A/	.	.	.	.	4E\	-wa!	.
.	.	.	.	.	.	4r	.	.
16E 16EE/	16g# 16e 16B 16G#X/	.	.	.	.	.	.	.
=29	=29	=29	=29	=29	=29	=29	=29	=29
4..D 4..DD/	4..a 4..f 4..d 4..A/	<	1ryy	.	.	1r	.	.
16C 16CC/	16cc 16g#X 16e 16c/	[	.	.	.	.	.	.
4C 4CC^/	4cc 4g# 4e 4c^/	.	.	.	.	.	.	.
8.r	8.r	.	.	.	.	.	.	.
16C 16CC\	16e 16c 16G#X< 16E</	.	.	.	.	.	.	.
=30	=30	=30	=30	=30	=30	=30	=30	=30
4..FF 4..FFF\	4..f 4..c 4..A-X< 4..F</	.	1ryy	.	.	1r	.	.
16AA-X 16AAA-X\	16e 16c 16A-< 16E</	.	.	.	.	.	.	.
4..D-X 4..DD-X\	4..f 4..d-X 4..A-< 4..F</	>	.	.	.	.	.	.
16C 16CC\	16g 16e-X 16c 16G</	]	.	.	.	.	.	.
=31	=31	=31	=31	=31	=31	=31	=31	=31
*tremolo	*	*	*	*	*	*	*	*
!	!	!LO:DY:rj	!	!	!	!	!	!
32CC/LLL	[1g [1e-X [1c [1G	p	1ryy	.	.	1r	.	.
32C/	.	.	.	.	.	.	.	.
32CC/	.	.	.	.	.	.	.	.
32C/	.	.	.	.	.	.	.	.
32CC/	.	.	.	.	.	.	.	.
32C/	.	.	.	.	.	.	.	.
32CC/	.	.	.	.	.	.	.	.
32C/	.	.	.	.	.	.	.	.
32CC/	.	.	.	.	.	.	.	.
32C/	.	.	.	.	.	.	.	.
32CC/	.	.	.	.	.	.	.	.
32C/	.	.	.	.	.	.	.	.
32CC/	.	.	.	.	.	.	.	.
32C/	.	.	.	.	.	.	.	.
32CC/	.	.	.	.	.	.	.	.
32C/	.	.	.	.	.	.	.	.
32CC/	.	.	.	.	.	.	.	.
32C/	.	.	.	.	.	.	.	.
32CC/	.	.	.	.	.	.	.	.
32C/	.	.	.	.	.	.	.	.
32CC/	.	.	.	.	.	.	.	.
32C/	.	.	.	.	.	.	.	.
32CC/	.	.	.	.	.	.	.	.
32C/	.	.	.	.	.	.	.	.
32CC/	.	.	.	.	.	.	.	.
32C/	.	.	.	.	.	.	.	.
32CC/	.	.	.	.	.	.	.	.
32C/	.	.	.	.	.	.	.	.
32CC/	.	.	.	.	.	.	.	.
32C/	.	.	.	.	.	.	.	.
32CC/	.	.	.	.	.	.	.	.
32C/JJJ	.	.	.	.	.	.	.	.
*Xtremolo	*	*	*	*	*	*	*	*
=32	=32	=32	=32	=32	=32	=32	=32	=32
4CC/	4g] 4e-] 4c] 4G/]	.	1ryy	.	.	1r	.	.
!	!	!LO:DY:a=2	!	!	!	!	!	!
8r	4r	p	.	.	.	.	.	.
(16EE-X/LL	.	.	.	.	.	.	.	.
16FF/JJ	.	.	.	.	.	.	.	.
4GG/)	2r	.	.	.	.	.	.	.
8r	.	.	.	.	.	.	.	.
(16AAn/LL	.	.	.	.	.	.	.	.
16BB/JJ	.	.	.	.	.	.	.	.
!!LO:LB:g=original
=33	=33	=33	=33	=33	=33	=33	=33	=33
!	!	!	!LO:TX:a:B:t=Silva.	!	!LO:DY:a:rj	!	!	!
8C/L)	1r	.	[4c\	Co?	mf	1ryy	.	.
8BB-X'/	.	.	.	.	.	.	.	.
8AA-X'/	.	.	8c\]	.	.	.	.	.
8GG'/J	.	.	8r	.	.	.	.	.
8FF'/L	.	.	8r	.	.	.	.	.
8EE-X'/	.	.	8G\	ty	.	.	.	.
8FF'/	.	.	8A-X\	nad	.	.	.	.
8AA-'/J	.	.	8D\	nią	.	.	.	.
=34	=34	=34	=34	=34	=34	=34	=34	=34
8GG'/L	2r	.	8.E-X\	mśić	.	1ryy	.	.
8FF'/	.	.	.	.	.	.	.	.
.	.	.	16F\	się	.	.	.	.
8EE-X'/	.	.	4G\	chcesz?	.	.	.	.
8DD'/J	.	.	.	.	.	.	.	.
8CC'/L	8r	.	2r	.	.	.	.	.
8E-X'/J	8g/	.	.	.	.	.	.	.
8D'/L	8anL 8f#X/	.	.	.	.	.	.	.
8GG'/J	8bnJ 8g 8d 8Bn/	.	.	.	.	.	.	.
=35	=35	=35	=35	=35	=35	=35	=35	=35
8GG\	8b 8g 8d 8B/	.	2r	.	.	1ryy	.	.
4GG\	4g 4d 4B/	.	.	.	.	.	.	.
4GG\	4d 4B 4G</	.	.	.	.	.	.	.
!	!	!	!LO:N:vis=8	!	!LO:DY:a	!	!	!
.	.	.	4D\	Czy-	p	.	.	.
4GG\	4d 4B 4G</	.	.	.	.	.	.	.
!	!	!	!LO:N:vis=8	!	!	!	!	!
.	.	.	4D\	-liż	.	.	.	.
8GG\	8d 8B 8G</	.	.	.	.	.	.	.
=36	=36	=36	=36	=36	=36	=36	=36	=36
*	*clefF4	*	*	*	*	*	*	*
8FF/	8B 8G 8D\	.	4..BB/	jest	.	1ryy	.	.
4FF/	4B 4G 4D\	.	.	.	.	.	.	.
8FF/	8B 8G 8D\	.	.	.	.	.	.	.
.	.	.	16BB/	nie-	.	.	.	.
8FF/L	8dL 8B 8G\	.	4D\	-na-	.	.	.	.
(8FF/	(8d [8B [8G\	.	.	.	.	.	.	.
8EE/)	8e) 8B] 8G]\	.	4E\	-wiść	.	.	.	.
8EE/J	8eJ 8B 8G\	.	.	.	.	.	.	.
!!LO:LB:g=original
=37	=37	=37	=37	=37	=37	=37	=37	=37
8DD/	8f 8A\	.	4F\	to,	.	1ryy	.	.
4DD/	4f 4A\	.	.	.	.	.	.	.
.	.	.	4r	.	.	.	.	.
4AA/	4d 4c 4F\	.	.	.	.	.	.	.
.	.	.	8r	.	.	.	.	.
4DD/	4f 4c 4A\	.	8F\	lub	.	.	.	.
.	.	.	8G\	mo-	.	.	.	.
8DD/	8f 8c 8A\	.	8A\	-że...	.	.	.	.
=38	=38	=38	=38	=38	=38	=38	=38	=38
!	!	!	!	!	!	!LO:TX:a:B:t=Proculus.	!	!LO:DY:a:rj
8DD^/	8e 8B 8G#X^^\	.	1ryy	.	.	8e\	Mil-	f
4DD/	4e 4B 4G#\	.	.	.	.	8B\	-czeć!	.
.	.	.	.	.	.	4r	.	.
8FF/	8d 8B 8A\	.	.	.	.	.	.	.
4EE/	4e 4B 4G#\	.	.	.	.	8r	.	.
.	.	.	.	.	.	8B\	ty	.
4r	4r	.	.	.	.	8.G#X\	myś-	.
.	.	.	.	.	.	16B\	-li	.
*	*clefG2	*	*	*	*	*	*	*
=39	=39	=39	=39	=39	=39	=39	=39	=39
[2E\	[2e/	p	1ryy	.	.	4E\	me	.
.	.	.	.	.	.	8.G#X\	od-	.
.	.	.	.	.	.	16A\	-ga-	.
4E\]	4e/]	.	.	.	.	4B\	-dy-	.
8.r	8.r	.	.	.	.	4E\	-wać	.
!	!	!LO:DY:rj	!	!	!	!	!	!
16E\	16g#X 16e 16B/	mf	.	.	.	.	.	.
=40	=40	=40	=40	=40	=40	=40	=40	=40
4..D\	4..a 4..f 4..d/	<	1ryy	.	.	2F\	śmiesz?	.
16BB/	16b 16f 16d/	.	.	.	.	.	.	.
4..D\	4..a 4..f 4..d/	.	.	.	.	2r	.	.
16E\	16g#X 16e 16B/	.	.	.	.	.	.	.
!!LO:LB:g=original
=41	=41	=41	=41	=41	=41	=41	=41	=41
!	!	!	!LO:TX:a:B:t=Silva.  z pokornym ukłonem	!	!	!	!	!
4..A 4..AA\	4..a 4..e 4..c/	f	2r	.	.	1ryy	.	.
16F 16FF/	16cc 16a 16f 16c/	.	.	.	.	.	.	.
4F 4FF^/	4cc 4a 4f 4c^/	.	4r	.	.	.	.	.
4r	4r;	.	8r;	.	.	.	.	.
!	!	!	!	!	!LO:DY:a	!	!	!
.	.	.	8C/	O	p	.	.	.
=42	=42	=42	=42	=42	=42	=42	=42	=42
8r	8r	.	4A\	wy-	.	1ryy	.	.
4DD\	4c#X< 4A< 4F</	p	.	.	.	.	.	.
.	.	.	8G\	-bacz	.	.	.	.
!	!	!	!LO:TX:a:i:t=rall.	!	!	!	!	!
8DD\	8d< 8A< 8F</	.	8F\	mi	.	.	.	.
!	!LO:TX:b:i:t=rall.	!	!	!	!	!	!	!
8r	8r	.	4.c\	smia-	.	.	.	.
4BBB/	4d#X 4cn 4A/	.	.	.	.	.	.	.
8BBB/	8f#X 8d# 8A/	.	8B\	-łość	.	.	.	.
=43||	=43||	=43||	=43||	=43||	=43||	=43||	=43||	=43||
!!!OMD: Moderato con moto.
*M3/4	*M3/4	*	*M3/4	*	*	*M3/4	*	*
4EE/	8eL 8G#X/	.	(4B\	mą!	.	2.ryy	.	.
.	8eJ 8E/	.	.	.	.	.	.	.
4r	8r	.	4E\)	.	.	.	.	.
.	8e 8E/	.	.	.	.	.	.	.
8r	4r	.	4r	.	.	.	.	.
!	!	!LO:DY:b=2	!	!	!	!	!	!
8BB/	.	pp	.	.	.	.	.	.
=44	=44	=44	=44	=44	=44	=44	=44	=44
!	!	!	!LO:TX:a:B:t=(przybliża się zwolna do Proculusa)	!	!	!	!	!
8D#X\	8r	.	2.r	.	.	2.ryy	.	.
8r	8e 8E/	.	.	.	.	.	.	.
4r	8r	.	.	.	.	.	.	.
.	8e 8E/	.	.	.	.	.	.	.
8r	4r	.	.	.	.	.	.	.
8C/	.	.	.	.	.	.	.	.
=45	=45	=45	=45	=45	=45	=45	=45	=45
8FF#X/	8r	.	2.r	.	.	2.ryy	.	.
8r	8e 8E/	.	.	.	.	.	.	.
4r	8r	.	.	.	.	.	.	.
.	8e 8E/	.	.	.	.	.	.	.
8r	4r	.	.	.	.	.	.	.
(8GG#X/	.	.	.	.	.	.	.	.
!!LO:LB:g=original
=46	=46	=46	=46	=46	=46	=46	=46	=46
4EE/)	8r	.	2.r	.	.	2.ryy	.	.
.	8e 8E/	.	.	.	.	.	.	.
4r	8r	.	.	.	.	.	.	.
.	8e 8E/	.	.	.	.	.	.	.
(4FF^^/	8r	.	.	.	.	.	.	.
.	8e 8E/	.	.	.	.	.	.	.
=47	=47	=47	=47	=47	=47	=47	=47	=47
4GG#X/)	8r	.	2.r	.	.	2.ryy	.	.
.	8e 8E/	.	.	.	.	.	.	.
4r	8r	.	.	.	.	.	.	.
.	8e 8E/	.	.	.	.	.	.	.
4BB^^/	8r	.	.	.	.	.	.	.
.	8e 8E/	.	.	.	.	.	.	.
=48	=48	=48	=48	=48	=48	=48	=48	=48
!	!	!LO:DY:a=2	!	!	!	!	!	!
(<4C/	8r	p	2.r	.	.	2.ryy	.	.
!	!LO:TX:b:i:t=mysterioso	!	!	!	!	!	!	!
.	4e 4c 4E/	.	.	.	.	.	.	.
4GG#X/	.	.	.	.	.	.	.	.
.	4e 4c 4E/	.	.	.	.	.	.	.
4C/	.	.	.	.	.	.	.	.
.	8e 8E/	.	.	.	.	.	.	.
=49	=49	=49	=49	=49	=49	=49	=49	=49
4GG#X/	8r	.	2.r	.	.	2.ryy	.	.
.	4e 4c 4E/	.	.	.	.	.	.	.
4AA/	.	.	.	.	.	.	.	.
.	4e 4c 4E/	.	.	.	.	.	.	.
8E\L	.	.	.	.	.	.	.	.
8D\J)	8e 8c 8E/	.	.	.	.	.	.	.
=50	=50	=50	=50	=50	=50	=50	=50	=50
(4C/	8r	.	2.r	.	.	2.ryy	.	.
.	4e 4c 4E/	.	.	.	.	.	.	.
4GG#X/	.	.	.	.	.	.	.	.
.	4e 4c 4E/	.	.	.	.	.	.	.
4C/	.	.	.	.	.	.	.	.
.	8e 8c 8E/	.	.	.	.	.	.	.
=51	=51	=51	=51	=51	=51	=51	=51	=51
4GG#X/	8r	.	4r	.	.	2.ryy	.	.
.	4e 4c 4E/	.	.	.	.	.	.	.
4AA/	.	.	4r	.	.	.	.	.
.	4e 4c 4E/	.	.	.	.	.	.	.
!	!	!	!	!	!LO:DY:a	!	!	!
8FF/L	.	.	4E\	Lecz	p	.	.	.
8EE/J)	8e 8c 8E/	.	.	.	.	.	.	.
=52	=52	=52	=52	=52	=52	=52	=52	=52
(<4C/	8r	.	(4.D#X\	gdym	.	2.ryy	.	.
.	4e 4c 4E/	.	.	.	.	.	.	.
4GG#X/	.	.	.	.	.	.	.	.
.	4e 4c 4E/	.	8E\)	.	.	.	.	.
4C/	.	.	(8F#X\L	za-	.	.	.	.
.	8e 8c 8E/	.	8G#X\J)	.	.	.	.	.
!!LO:PB:g=original
=53	=53	=53	=53	=53	=53	=53	=53	=53
4GG#X/	8r	.	4B\	-po-	.	2.ryy	.	.
.	4e 4c 4E/	.	.	.	.	.	.	.
4AA/	.	.	4A\	-mniał	.	.	.	.
.	4e 4c 4E/	.	.	.	.	.	.	.
8E\L	.	.	4c\	żem	.	.	.	.
8D\J)	8e 8c 8E/	.	.	.	.	.	.	.
=54	=54	=54	=54	=54	=54	=54	=54	=54
(4C/	8r	.	2E\	słu-	.	2.ryy	.	.
.	4e 4c 4E/	.	.	.	.	.	.	.
4GG#X/	.	.	.	.	.	.	.	.
.	4e 4c 4E/	.	.	.	.	.	.	.
4C/	.	.	8A\	-gą	.	.	.	.
.	8e 8c 8E/	.	8Gn\	nie-	.	.	.	.
=55	=55	=55	=55	=55	=55	=55	=55	=55
4GG#X/	8r	.	4Fn\	-god-	.	2.ryy	.	.
.	4e 4c 4E/	.	.	.	.	.	.	.
4AA/	.	.	4E\	-nym,	.	.	.	.
.	4e 4c 4E/	.	.	.	.	.	.	.
8FF/L	.	.	(8D\L	Ty	.	.	.	.
8EE/J)	8e 8c 8E/	.	8E\J)	.	.	.	.	.
=56	=56	=56	=56	=56	=56	=56	=56	=56
(4DD/	8r	.	(4F\	chciej	.	2.ryy	.	.
.	4f 4c 4F/	.	.	.	.	.	.	.
4EE/	.	.	4E\)	.	.	.	.	.
.	4e 4c 4G#X/	.	.	.	.	.	.	.
4FF/	.	.	8r	.	.	.	.	.
.	8d 8c 8A/	.	8D\	pa-	.	.	.	.
=57	=57	=57	=57	=57	=57	=57	=57	=57
4C/	8r	.	(2A\	-mię-	.	2.ryy	.	.
.	4a 4f 4d/	.	.	.	.	.	.	.
4BB/)	.	.	.	.	.	.	.	.
.	4a 4f 4d/	.	.	.	.	.	.	.
(8Gn\L	.	.	4BB/)	.	.	.	.	.
8F\J	8cc 8a 8d/	.	.	.	.	.	.	.
=58	=58	=58	=58	=58	=58	=58	=58	=58
4E\	8r	.	[2.E\	-tać	.	2.ryy	.	.
.	4cc 4g#X 4d/	.	.	.	.	.	.	.
8BB/L	.	.	.	.	.	.	.	.
8C/J	4cc 4g# 4e/	.	.	.	.	.	.	.
4D\	.	.	.	.	.	.	.	.
.	8b 8g# 8e/	.	.	.	.	.	.	.
!!LO:LB:g=original
=59	=59	=59	=59	=59	=59	=59	=59	=59
4FF/	8r	.	4E\]	.	.	2.ryy	.	.
.	4a 4d 4B/	.	.	.	.	.	.	.
4BB/	.	.	4r	.	.	.	.	.
.	4g#X 4d 4B/	.	.	.	.	.	.	.
4EE/)	.	.	8.E\	że	.	.	.	.
.	8e 8d 8G#X/	.	.	.	.	.	.	.
.	.	.	16E\	i	.	.	.	.
=60	=60	=60	=60	=60	=60	=60	=60	=60
(4C/	8r	.	(4.D#X\	ro-	.	2.ryy	.	.
.	4e 4c 4E/	.	.	.	.	.	.	.
4GG#X/	.	.	.	.	.	.	.	.
.	4ee 4cc 4e/	.	8E\)	.	.	.	.	.
4C/	.	.	(8F#X\L	-bak	.	.	.	.
.	8g#X 8e 8G#X/	.	8G#X\J)	.	.	.	.	.
=61	=61	=61	=61	=61	=61	=61	=61	=61
4GG#X/	8r	.	4B\	ma-	.	2.ryy	.	.
.	4b 4e 4B/	.	.	.	.	.	.	.
4AA/	.	.	4A\	-ły	.	.	.	.
.	4a 4f 4c/	.	.	.	.	.	.	.
8E\L	.	.	4c\	Dla	.	.	.	.
8D\J)	8cc 8a 8c/	.	.	.	.	.	.	.
=62	=62	=62	=62	=62	=62	=62	=62	=62
(4C/	8r	.	2E\	zem-	.	2.ryy	.	.
.	4ee 4cc 4e/	.	.	.	.	.	.	.
4GG#X/	.	.	.	.	.	.	.	.
.	4dd 4b 4d/	.	.	.	.	.	.	.
4C/	.	.	(8A\L	-sty	.	.	.	.
.	8cc 8a 8c/	.	8Gn\J)	.	.	.	.	.
=63	=63	=63	=63	=63	=63	=63	=63	=63
4GG#X/	8r	.	4F\	pla-	.	2.ryy	.	.
.	4b 4d 4B/	.	.	.	.	.	.	.
4AA/	.	.	4E\	-nów	.	.	.	.
.	4a 4c 4A/	.	.	.	.	.	.	.
8BB/L	.	.	4r	.	.	.	.	.
8C/J)	8ee 8a 8e/	.	.	.	.	.	.	.
=64	=64	=64	=64	=64	=64	=64	=64	=64
!	!	!	!	!	!LO:DY:a	!	!	!
(4BB/	8r	.	2D#X\	mo-	mf	2.ryy	.	.
.	4dd#X 4a 4d#X/	.	.	.	.	.	.	.
4FF#X/	.	.	.	.	.	.	.	.
.	4b 4a 4d#/	.	.	.	.	.	.	.
4BB/	.	.	4F#X\	-że	.	.	.	.
.	8dd# 8a 8d#/	.	.	.	.	.	.	.
!!LO:LB:g=original
=65	=65	=65	=65	=65	=65	=65	=65	=65
4FF#X/	8r	.	2B\	być	.	2.ryy	.	.
.	4b 4a 4d#X/	.	.	.	.	.	.	.
4GGn/)	.	.	.	.	.	.	.	.
.	4ee 4b 4e/	.	.	.	.	.	.	.
(8F#X\L	.	.	(8A\L	do-	.	.	.	.
8E\J	8g 8e 8B/	.	8B\J)	.	.	.	.	.
=66	=66	=66	=66	=66	=66	=66	=66	=66
4AA/)	8r	.	(4dn\	-god-	.	2.ryy	.	.
.	4f#X 4c/	.	.	.	.	.	.	.
(8E\L	.	.	4c\	.	.	.	.	.
8D#X\J	4cc 4f# 4c/	.	.	.	.	.	.	.
4BB/)	.	.	4D#X\)	.	.	.	.	.
.	8d#X 8B 8A/	.	.	.	.	.	.	.
=67	=67	=67	=67	=67	=67	=67	=67	=67
(4EE/	8r	.	2E\	-nym.	.	2.ryy	.	.
.	4e 4B 4G/	>	.	.	.	.	.	.
4BB/	.	.	.	.	.	.	.	.
.	4e 4B 4G/	]	.	.	.	.	.	.
4EE/)	.	.	4r	.	.	.	.	.
.	8g 8e 8B/	.	.	.	.	.	.	.
=68	=68	=68	=68	=68	=68	=68	=68	=68
(4EE-X/	8r	p	8r	.	.	2.ryy	.	.
!	!	!	!	!	!LO:DY:a	!	!	!
.	4g 4c 4G/	.	8G\	Jam	p	.	.	.
4C/	.	.	4G\	w do-	.	.	.	.
.	4g 4e-X 4c/	.	.	.	.	.	.	.
4EE-/	.	.	(8F#X\L	-mu	.	.	.	.
.	8cc 8g 8c/	.	8G\J)	.	.	.	.	.
=69	=69	=69	=69	=69	=69	=69	=69	=69
4DD/	8r	.	2A\	Li-	.	2.ryy	.	.
.	4a 4f#X 4c/	.	.	.	.	.	.	.
4AA/	.	.	.	.	.	.	.	.
.	4f# 4d 4c/	.	.	.	.	.	.	.
4DD/)	.	.	4A\	-vii	.	.	.	.
.	8a 8f# 8c/	.	.	.	.	.	.	.
=70	=70	=70	=70	=70	=70	=70	=70	=70
(4DD-X/	8r	.	4.B-X\	wiek	.	2.ryy	.	.
.	4b-X 4fn 4B-X/	.	.	.	.	.	.	.
4BB-X/	.	.	.	.	.	.	.	.
.	4f 4d 4B-/	.	8A-X\	już	.	.	.	.
4DD-/	.	.	8G-X\	prze-	.	.	.	.
.	8b- 8f 8B-/	.	8Fn\	-był	.	.	.	.
!!LO:LB:g=original
=71	=71	=71	=71	=71	=71	=71	=71	=71
!	!	!	!	!	!	!LO:TX:a:B:t=Proculus.	!	!
4CC/	8r	.	4En\	ca-	.	2.r	.	.
.	4dd-X 4b-X 4e/	.	.	.	.	.	.	.
4GG/	.	.	4C/	-ły,	.	.	.	.
.	4e 4B-X/	.	.	.	.	.	.	.
4CC/)	.	.	8r	.	.	.	.	.
.	8cc 8e 8c/	.	8C/	ja	.	.	.	.
=72	=72	=72	=72	=72	=72	=72	=72	=72
(4GG#X/	8r	<	(2C/	wi-	<	2.r	.	.
.	4cc 4e 4c/	.	.	.	.	.	.	.
4CC/	.	.	.	.	.	.	.	.
.	4ee 4g#X 4e/	.	.	.	.	.	.	.
4GG#/	.	.	4E\	.	.	.	.	.
.	8cc 8e 8c/	[	.	.	[[	.	.	.
=73	=73	=73	=73	=73	=73	=73	=73	=73
4CC#X/	8r	.	2G#X\)	.	>	2.r	.	.
.	4ee 4g#X 4e/	.	.	.	.	.	.	.
4GG#X/	.	.	.	.	.	.	.	.
.	4cc#X 4e 4c#X/	.	.	.	.	.	.	.
4CC#/)	.	.	4E\	-dzę	]	.	.	.
.	8ee 8g# 8e/	.	.	.	.	.	.	.
=74	=74	=74	=74	=74	=74	=74	=74	=74
(4BBB#X/	8r	.	2.G#X\	wszyst-	.	2.r	.	.
.	4gg#X 4ee 4g#X\	.	.	.	.	.	.	.
4GG#X/	.	.	.	.	.	.	.	.
.	4b#X 4e 4B#X/	.	.	.	.	.	.	.
4BBB#/	.	.	.	.	.	.	.	.
.	8ee 8g# 8e/	.	.	.	.	.	.	.
=75	=75	=75	=75	=75	=75	=75	=75	=75
4AAA#X/	8r	.	4E\	-ko	.	4r	.	.
.	4gg#X 4ee 4g#X\	<	.	.	.	.	.	.
4GG#X/	.	.	4r	.	.	8G#X\	O-	.
.	4ee 4cc#X 4e/	.	.	.	.	8A#X\	-ko	.
4AAA#/)	.	.	4r	.	.	8B#X\	twe	.
.	8cc# 8e 8c#X/	[	.	.	.	8c#X\	prze-	.
!!LO:LB:g=original
=76	=76	=76	=76	=76	=76	=76	=76	=76
(4GGn/	8r	mf	2.r	.	.	4e\	-ni-	.
.	4ccn 4e 4cn/	.	.	.	.	.	.	.
4BBB-X/	.	.	.	.	.	4Gn\	-ka	.
.	4ee 4gn 4e/	.	.	.	.	.	.	.
4GG/)	.	.	.	.	.	8r	.	.
.	[8cc [>8e [8c/	.	.	.	.	8e\	ta-	.
=77	=77	=77	=77	=77	=77	=77	=77	=77
(4BBB-X/	8cc] 8e] 8c/]	.	2.r	.	.	4e\	-jem-	.
.	4gg 4ee 4g\	.	.	.	.	.	.	.
4GG/	.	.	.	.	.	4cn\	-nie	.
.	4cc 4e 4c/	.	.	.	.	.	.	.
4BBB-/)	.	.	.	.	.	4r	.	.
.	8ee 8g 8e/	.	.	.	.	.	.	.
=78	=78	=78	=78	=78	=78	=78	=78	=78
!	!	!	!	!	!	!	!	!LO:DY:a:rj
(4AAA-X/	8r	.	2.r	.	.	(2c\	głę-	f
.	4ff 4cc 4f\	.	.	.	.	.	.	.
4BBBn/	.	.	.	.	.	.	.	.
!	!	!LO:DY:t=dim.	!	!	!	!	!	!
.	4dd-X 4f 4d-X/	>	.	.	.	.	.	.
8CC/L	.	.	.	.	.	4A-X\)	.	.
8DDn/J	[8cc [>8a-X [8c/	>	.	.	.	.	.	.
=79	=79	=79	=79	=79	=79	=79	=79	=79
8FF/L	8cc] 8a-] 8c/]	.	4r	.	.	2F\	-bie?	.
8GG/J	4b 4f 4d-X/	]	.	.	.	.	.	.
!	!	!	!	!	!LO:DY:a	!	!	!
4FF/	.	p	4.F\	Więc	mf	.	.	.
.	4a-X 4f 4c/	.	.	.	.	.	.	.
4DD-X/)	.	.	.	.	.	4r	.	.
.	8bn 8f 8Bn/	.	8F\	po-	.	.	.	.
=80	=80	=80	=80	=80	=80	=80	=80	=80
(4CC/	8r	.	2.c\	-słu-	.	2.r	.	.
.	4cc 4e 4c/	.	.	.	.	.	.	.
4DDn/	.	.	.	.	.	.	.	.
.	4b 4f 4c/	.	.	.	.	.	.	.
4EE/	.	.	.	.	.	.	.	.
.	[8b-X [>8g [8c/	.	.	.	.	.	.	.
=81	=81	=81	=81	=81	=81	=81	=81	=81
4GG/	8b-] 8g] 8c/]	>	4C/	-chaj:	.	2.r	.	.
.	4b-X 4e 4c/	.	.	.	.	.	.	.
4FF/	.	.	4r	.	.	.	.	.
.	4a-X 4f 4c/	.	.	.	.	.	.	.
4GG/)	.	.	4r	.	.	.	.	.
.	8e 8B-X/	]	.	.	.	.	.	.
!!LO:PB:g=original
=82	=82	=82	=82	=82	=82	=82	=82	=82
!	!	!	!	!	!LO:DY:a	!	!	!
(4AA-X/	8r	pp	2C/	Li-	p	2.ryy	.	.
.	4f 4c/	.	.	.	.	.	.	.
4EEn/	.	.	.	.	.	.	.	.
.	4cc 4a-X 4c/	.	.	.	.	.	.	.
4AA-/	.	.	(8BBn/L	-via	.	.	.	.
.	8cc 8a- 8c/	.	8C/J)	.	.	.	.	.
=83	=83	=83	=83	=83	=83	=83	=83	=83
4EE/	8r	.	4G\	Li-	.	2.ryy	.	.
.	4cc 4a-X 4c/	.	.	.	.	.	.	.
4FF/	.	.	4F\	-via,	.	.	.	.
.	4cc 4a- 4c/	.	.	.	.	.	.	.
8C/L	.	.	4A-X\	Ta	.	.	.	.
8BB-X/J)	8cc 8a- 8c/	.	.	.	.	.	.	.
=84	=84	=84	=84	=84	=84	=84	=84	=84
4AA-X/	8r	.	2C/	dum-	.	2.ryy	.	.
.	4cc 4a-X 4c/	.	.	.	.	.	.	.
(4EE/	.	.	.	.	.	.	.	.
.	4cc 4a- 4c/	.	.	.	.	.	.	.
4AA-/	.	.	(8F\L	-na	.	.	.	.
.	8cc 8a- 8c/	.	8E-X\J)	.	.	.	.	.
=85	=85	=85	=85	=85	=85	=85	=85	=85
4EE/	8r	.	4D-X\	Li-	.	2.ryy	.	.
.	4b-X 4d-X 4B-X/	.	.	.	.	.	.	.
4FF/	.	.	4C/	-via,	.	.	.	.
.	4a-X 4c 4A-X/	.	.	.	.	.	.	.
8GG/L	.	.	4r	.	.	.	.	.
8AA-X/J)	8cc 8f 8c/	.	.	.	.	.	.	.
=86	=86	=86	=86	=86	=86	=86	=86	=86
(4BBn/	8r	.	4r	.	.	2.ryy	.	.
.	4ddn 4f 4dn/	.	.	.	.	.	.	.
4FF/	.	.	8Dn\	mi-	<	.	.	.
.	4bn 4g 4d/	<	8En\	-łość	.	.	.	.
4BB/	.	.	8F\	nie	.	.	.	.
.	8dd 8f 8d/	.	8D\	wol-	.	.	.	.
=87	=87	=87	=87	=87	=87	=87	=87	=87
4EE/	8r	.	(2G\	-ni-	.	2.ryy	.	.
.	4cc 4g 4d/	.	.	.	.	.	.	.
4FF/	.	.	.	.	.	.	.	.
.	4b 4g 4d/	.	.	.	.	.	.	.
8D/L	.	.	4A-X\)	.	.	.	.	.
8C/J)	8cc 8a-X 8e-X/	.	.	.	.	.	.	.
!!LO:LB:g=original
=88	=88	=88	=88	=88	=88	=88	=88	=88
(4BB/	8r	.	[2.G\	-ka	.	2.ryy	.	.
.	4dd 4g 4d/	.	.	.	.	.	.	.
4FF/	.	.	.	.	.	.	.	.
.	4b 4g 4d/	.	.	.	.	.	.	.
4BB/	.	.	.	.	.	.	.	.
.	8g 8d/	.	.	.	.	.	.	.
=89	=89	=89	=89	=89	=89	=89	=89	=89
4FF#X/	8r	.	4G\]	.	.	2.ryy	.	.
.	4cc 4a-X 4d/	.	.	.	.	.	.	.
4GG/	.	.	4r	.	.	.	.	.
.	4b 4g 4d/	.	.	.	.	.	.	.
8En\L	.	.	4Gn\	Prze-	.	.	.	.
8D\J)	8dd 8f 8d/	.	.	.	.	.	.	.
=90	=90	=90	=90	=90	=90	=90	=90	=90
!	!	!LO:DY:a=2	!	!	!	!	!	!
(4C#X/	8r	mf	2E\	-nio-	.	2.ryy	.	.
.	4ee 4g 4e/	.	.	.	.	.	.	.
4GG/	.	.	.	.	.	.	.	.
.	4cc#X 4a 4e/	.	.	.	.	.	.	.
4C#/	.	.	(8F\L	-sła	.	.	.	.
.	8ee 8g 8e/	.	8G\J)	.	.	.	.	.
=91	=91	=91	=91	=91	=91	=91	=91	=91
4GG#X/	8r	.	4A\	wy-	.	2.ryy	.	.
!	!LO:TX:b:i:t=accel.	!	!LO:TX:a:i:t=accel.	!	!	!	!	!
.	4cc#X 4e 4c#X/	.	.	.	.	.	.	.
4AA/	.	.	4E\	-żej	.	.	.	.
.	4a 4e 4c#/	.	.	.	.	.	.	.
8F\L	.	.	4A\	nad	.	.	.	.
8E\J)	8b-X 8g 8d/	.	.	.	.	.	.	.
=92	=92	=92	=92	=92	=92	=92	=92	=92
!	!	!	!	!	!LO:DY:a:rj	!	!	!
(4GG#X/	8r	.	4.B-X\	Pro-	f	2.ryy	.	.
.	4dd 4b-X 4f/	.	.	.	.	.	.	.
4AA/	.	.	.	.	.	.	.	.
.	4cc#X 4a 4e/	.	8A\	-cu-	.	.	.	.
8F\L	.	.	4d\	-la	.	.	.	.
8E\J)	[8gg [8dd [8g\	.	.	.	.	.	.	.
=93	=93	=93	=93	=93	=93	=93	=93	=93
(4BBn/	8gg] 8dd] 8g\]	.	4d\	ło-	.	2.ryy	.	.
.	4ff 4dd 4g\	.	.	.	.	.	.	.
4C#X/	.	.	4c#X\	-że!	.	.	.	.
.	4ee 4a 4g\	.	.	.	.	.	.	.
8B-X\L	.	.	4r	.	.	.	.	.
8A\J)	8eee 8ccc#X 8ee^^\	.	.	.	.	.	.	.
!!LO:LB:g=original
=94	=94	=94	=94	=94	=94	=94	=94	=94
!	!LO:TX:b:i:t=a tempo	!	!	!	!	!LO:TX:a:i:t=a tempo	!	!
2.r	2.r	.	2.ryy	.	.	4r	.	.
.	.	.	.	.	.	4r	.	.
.	.	.	.	.	.	8r	.	.
!	!	!	!	!	!	!LO:TX:a:B:t=Proculus.	!	!LO:DY:a:rj
.	.	.	.	.	.	8c#X\	To	f
=95	=95	=95	=95	=95	=95	=95	=95	=95
2.r	2.r	.	2.ryy	.	.	[2.e\	kłam-	.
=96	=96	=96	=96	=96	=96	=96	=96	=96
2.r	2.r	.	2.ryy	.	.	2.e\]	.	.
=97||	=97||	=97||	=97||	=97||	=97||	=97||	=97||	=97||
!!!OMD: Allegro.
!	!LO:TX:a:B:t=Allegro.	!	!	!	!	!	!	!
4r	4r	.	2.ryy	.	.	[2.A\	-stwo!	.
!	!LO:TX:t=P:problem:mixed beam	!	!	!	!	!	!	!
4ryy	16AA</LL	.	.	.	.	.	.	.
.	16A\	.	.	.	.	.	.	.
.	16BB</	.	.	.	.	.	.	.
.	16B\JJ	.	.	.	.	.	.	.
!	!LO:TX:t=P:problem:mixed beam	!	!	!	!	!	!	!
4ryy	16C#X</LL	.	.	.	.	.	.	.
.	16c#X\	.	.	.	.	.	.	.
.	16D</	.	.	.	.	.	.	.
.	16d\JJ	.	.	.	.	.	.	.
=98	=98	=98	=98	=98	=98	=98	=98	=98
!	!LO:TX:t=P:problem:mixed beam	!	!	!	!	!	!	!
2.ryy	16E</LL	.	2.ryy	.	.	4A\]	.	.
.	16e\	.	.	.	.	.	.	.
.	16F</	.	.	.	.	.	.	.
.	16f\JJ	.	.	.	.	.	.	.
!	!LO:TX:t=P:problem:mixed beam	!	!	!	!	!	!	!
.	16F#X</LL	.	.	.	.	4r	.	.
.	16f#X\	.	.	.	.	.	.	.
.	16G</	.	.	.	.	.	.	.
.	16g\JJ	.	.	.	.	.	.	.
!	!LO:TX:t=P:problem:mixed beam	!	!	!	!	!	!	!
.	16G#X</LL	.	.	.	.	4r	.	.
.	16g#X\	.	.	.	.	.	.	.
.	16A</	.	.	.	.	.	.	.
.	16a\JJ	.	.	.	.	.	.	.
=99	=99	=99	=99	=99	=99	=99	=99	=99
2.r	16B-X/LL	.	2.ryy	.	.	2.r	.	.
.	16b-X/	.	.	.	.	.	.	.
.	16Bn/	.	.	.	.	.	.	.
.	16bn/JJ	.	.	.	.	.	.	.
.	16c/LL	.	.	.	.	.	.	.
.	16cc/	.	.	.	.	.	.	.
.	16c#X/	.	.	.	.	.	.	.
.	16cc#X/JJ	.	.	.	.	.	.	.
.	16d/LL	.	.	.	.	.	.	.
.	16dd/	.	.	.	.	.	.	.
.	16d#X/	.	.	.	.	.	.	.
.	16dd#X/JJ	.	.	.	.	.	.	.
!!LO:LB:g=original
=100	=100	=100	=100	=100	=100	=100	=100	=100
4r	16e\LL	.	2.ryy	.	.	2.r	.	.
.	16ee\	.	.	.	.	.	.	.
.	16f\	.	.	.	.	.	.	.
.	16ff\JJ	.	.	.	.	.	.	.
4r	16f#X\LL	.	.	.	.	.	.	.
.	16ff#X\	.	.	.	.	.	.	.
.	16g\	.	.	.	.	.	.	.
.	16gg\JJ	.	.	.	.	.	.	.
8r	16g#X\LL	.	.	.	.	.	.	.
.	16gg#X\JJ	.	.	.	.	.	.	.
8D 8DD/	8aa 8ffn 8dd 8a\	.	.	.	.	.	.	.
=101	=101	=101	=101	=101	=101	=101	=101	=101
[2G [2GG/	[2bb-X [2gg [2dd [2b-X\	ff	2.ryy	.	.	2.r	.	.
8G]L 8GG/]	8bb-]L 8gg] 8dd] 8b-\]	.	.	.	.	.	.	.
8FJ 8FF/	8cccJ 8aa 8ff 8cc\	.	.	.	.	.	.	.
=102	=102	=102	=102	=102	=102	=102	=102	=102
[2G [2GG/	[2bb-X [2gg [2dd [2b-X\	.	2.ryy	.	.	4r	.	.
.	.	.	.	.	.	4r	.	.
8G]L 8GG/]	8bb-]L 8gg] 8dd] 8b-\]	.	.	.	.	4d\	To	.
8DJ 8DD/	8aaJ 8ff 8dd 8a\	.	.	.	.	.	.	.
=103	=103	=103	=103	=103	=103	=103	=103	=103
[2BB-X [2BBB-X/	[2bb-X [2ff [2dd [2b-X\	.	2.ryy	.	.	2.f\	kłam-	.
8BB-]L 8BBB-/]	8bb-]L 8ff] 8dd] 8b-\]	.	.	.	.	.	.	.
8FJ 8FF/	8dddJ 8aa 8ff 8dd\	.	.	.	.	.	.	.
=104	=104	=104	=104	=104	=104	=104	=104	=104
4F 4FF/	4ddd 4aa 4ff 4dd\	.	2.ryy	.	.	2F\	-stwo!	.
4r	4r	.	.	.	.	.	.	.
8r	8r	.	.	.	.	4r	.	.
8D 8DD/	8ff 8dd 8a 8f\	.	.	.	.	.	.	.
=105	=105	=105	=105	=105	=105	=105	=105	=105
[2G [2GG/	[2gg [2dd [2b-X [2g\	.	2.ryy	.	.	2.r	.	.
8G]L 8GG\]	8gg]L 8dd] 8b-] 8g\]	.	.	.	.	.	.	.
8B-XJ 8BB-X\	8ffJ 8dd 8b- 8f\	.	.	.	.	.	.	.
=106	=106	=106	=106	=106	=106	=106	=106	=106
[2E-X [2EE-X/	[2gg [2ee-X [2b-X [2g\	.	2.ryy	.	.	2.r	.	.
8E-]L 8EE-/]	8gg]L 8ee-] 8b-] 8g\]	.	.	.	.	.	.	.
8DJ 8DD/	8aaJ 8ff 8dd 8a\	.	.	.	.	.	.	.
!!LO:LB:g=original
=107	=107	=107	=107	=107	=107	=107	=107	=107
!!!OMD: Moderato con moto.
!	!LO:TX:a:B:t=Moderato con moto.	!	!LO:TX:a:B:t=Silva.	!	!	!	!	!
4F 4DD/	8aa 8ff 8dd 8a\	.	2.r	.	.	2.ryy	.	.
.	4a 4f 4A/	p	.	.	.	.	.	.
(4C#X/	.	.	.	.	.	.	.	.
.	4a 4f 4A/	.	.	.	.	.	.	.
4F\	.	.	.	.	.	.	.	.
.	8a 8f 8A/	.	.	.	.	.	.	.
=108	=108	=108	=108	=108	=108	=108	=108	=108
4C#X/	8r	.	4r	.	.	2.ryy	.	.
.	4a 4f 4A/	.	.	.	.	.	.	.
!	!	!	!	!	!LO:DY:a:rj	!	!	!
4D\	.	.	4A\	O-	p	.	.	.
.	4a 4f 4A/	.	.	.	.	.	.	.
8A\L	.	.	4A\	-czom	.	.	.	.
8G\J)	8a 8f 8A/	.	.	.	.	.	.	.
=109	=109	=109	=109	=109	=109	=109	=109	=109
(4F\	8r	.	2d\	swym	.	2.ryy	.	.
.	4a 4f 4A/	.	.	.	.	.	.	.
4C#X/	.	.	.	.	.	.	.	.
.	4a 4f 4A/	.	.	.	.	.	.	.
4F\	.	.	(8cn\L	u-	.	.	.	.
.	8b-X 8d 8B-X/	.	8B-X\J)	.	.	.	.	.
=110	=110	=110	=110	=110	=110	=110	=110	=110
4C#X/	8r	.	(4.A\	-wie-	.	2.ryy	.	.
.	4a 4e 4A/	.	.	.	.	.	.	.
4D\	.	.	.	.	.	.	.	.
.	4a 4f 4A/	.	8F\)	.	.	.	.	.
8BB-X/L	.	.	4D\	-rzysz	.	.	.	.
8AA/J)	8a 8f 8A/	.	.	.	.	.	.	.
=111	=111	=111	=111	=111	=111	=111	=111	=111
(<4GG/	8r	.	4B-X\	mo-	.	2.ryy	.	.
.	4b-X 4e 4d/	.	.	.	.	.	.	.
4AA/	.	.	4A\	-że?	.	.	.	.
.	4a 4f 4c#X/	.	.	.	.	.	.	.
4BB-X/	.	.	4r	.	.	.	.	.
.	8a 8f 8d/	.	.	.	.	.	.	.
=112	=112	=112	=112	=112	=112	=112	=112	=112
4F\	8r	.	2.r	.	.	2.ryy	.	.
.	4a 4d 4B-X/	.	.	.	.	.	.	.
4E\	.	.	.	.	.	.	.	.
.	4g 4d 4B-/	.	.	.	.	.	.	.
4GG/)	.	.	.	.	.	.	.	.
.	[8f [>8d [8B-/	.	.	.	.	.	.	.
=113	=113	=113	=113	=113	=113	=113	=113	=113
(<4GG#X/	8f] 8d] 8B-/]	.	2.r	.	.	2.ryy	.	.
.	4e 4d 4Bn/	.	.	.	.	.	.	.
4AA/	.	.	.	.	.	.	.	.
.	4ccn 4e 4cn/	.	.	.	.	.	.	.
4BBn/	.	.	.	.	.	.	.	.
.	8b 8f 8d/	.	.	.	.	.	.	.
!!LO:PB:g=original
=114	=114	=114	=114	=114	=114	=114	=114	=114
!	!	!	!	!	!	!LO:TX:a:B:t=Proculus.	!	!
4F\	8r	<	4r	.	.	2.r	.	.
.	4a 4d 4B/	.	.	.	.	.	.	.
4E\	.	.	8r	.	.	.	.	.
!	!	!	!	!	!LO:DY:a	!	!	!
.	4g#X 4d 4B/	.	8G#X\	Nie-	mf	.	.	.
4GG#X/)	.	.	8A\	-ba-	.	.	.	.
.	8e 8d 8B/	[	8B\	-wem	.	.	.	.
=115	=115	=115	=115	=115	=115	=115	=115	=115
(<4AA/	8r	mf	2.c\	Ly-	.	2.r	.	.
.	4ee 4cc 4e/	.	.	.	.	.	.	.
4C/	.	.	.	.	.	.	.	.
.	4cc 4a 4e/	.	.	.	.	.	.	.
4D#X\	.	.	.	.	.	.	.	.
.	8a 8f 8c/	.	.	.	.	.	.	.
=116	=116	=116	=116	=116	=116	=116	=116	=116
4F\	8r	.	4A\	-kon.	.	4r	.	.
.	4a 4d#X 4B/	.	.	.	.	.	.	.
!	!	!	!	!	!	!	!	!LO:DY:a
4E\	.	.	4r	.	.	8A\	Ten	f
.	4cc 4e 4c/	.	.	.	.	8G#X\	lu-	.
4C/)	.	.	4r	.	.	8A\	-tni-	.
.	8ee 8a 8e/	.	.	.	.	8c\	-sta	.
=117	=117	=117	=117	=117	=117	=117	=117	=117
(4BB/	8r	.	2.r	.	.	4e\	bla-	.
.	4ee 4a 4f/	>	.	.	.	.	.	.
4FF/	.	.	.	.	.	4d\	-dy?	.
.	4dd 4a 4f/	.	.	.	.	.	.	.
4BB/)	.	.	.	.	.	4r	.	.
.	8cc 8a 8d/	]	.	.	.	.	.	.
=118	=118	=118	=118	=118	=118	=118	=118	=118
(4AA/	8r	p	4F\	Tak!	.	2.r	.	.
.	4cc 4f 4d/	.	.	.	.	.	.	.
4DD/	.	.	4r	.	.	.	.	.
.	4b 4f 4d/	.	.	.	.	.	.	.
4AA/	.	.	8.C#X/	pię-	.	.	.	.
.	8f 8d 8B/	.	.	.	.	.	.	.
.	.	.	16D\	-kny	.	.	.	.
=119	=119	=119	=119	=119	=119	=119	=119	=119
4CC#X/	8r	.	4B\	Ly-	.	2.r	.	.
.	4b 4f 4B/	.	.	.	.	.	.	.
4DD/	.	.	4A\	-kon	.	.	.	.
.	4a 4f 4B/	.	.	.	.	.	.	.
8BB/L	.	.	4F\	na	.	.	.	.
8AA/J)	8f 8d 8B/	.	.	.	.	.	.	.
!!LO:LB:g=original
=120	=120	=120	=120	=120	=120	=120	=120	=120
(4GG#X/	8r	.	4E\	Li-	.	2.ryy	.	.
.	4e 4d 4B/	.	.	.	.	.	.	.
4EE/	.	.	4BB/	-vii	.	.	.	.
.	4b 4d 4B/	.	.	.	.	.	.	.
4AA/	.	.	4F\	we-	.	.	.	.
.	8f 8d 8B/	.	.	.	.	.	.	.
=121	=121	=121	=121	=121	=121	=121	=121	=121
4GG#X/	8r	.	(2E\	-zwa-	.	2.ryy	.	.
.	4e 4d 4B/	.	.	.	.	.	.	.
4C/	.	.	.	.	.	.	.	.
.	4ee 4g#X 4e/	.	.	.	.	.	.	.
4BB/)	.	.	4D\)	.	.	.	.	.
.	8dd 8g# 8e/	.	.	.	.	.	.	.
=122	=122	=122	=122	=122	=122	=122	=122	=122
(4AA/	8r	>	[2.C/	-nie	.	2.ryy	.	.
.	4cc 4a 4e/	.	.	.	.	.	.	.
4C/	.	.	.	.	.	.	.	.
.	4a 4e 4A/	.	.	.	.	.	.	.
4AA/	.	.	.	.	.	.	.	.
.	8e 8c 8A/	]	.	.	.	.	.	.
=123||	=123||	=123||	=123||	=123||	=123||	=123||	=123||	=123||
!!!OMD: Più lento.
4GG/	8r	.	4C/]	.	.	2.ryy	.	.
.	4b-X 4e 4B-X/	.	.	.	.	.	.	.
4C/	.	.	8r	.	.	.	.	.
.	4g 4e 4B-/	.	8G\	U-	.	.	.	.
4GG/)	.	.	8B-X\	-pa-	.	.	.	.
.	8e 8B- 8E/	.	8D\	-jać	.	.	.	.
=124	=124	=124	=124	=124	=124	=124	=124	=124
(4AA/	8r	.	(8C\L	po-	.	2.ryy	.	.
.	4c 4A 4F/	.	8F\J)	.	.	.	.	.
4GG/	.	.	4G\	-cznie	.	.	.	.
.	4e 4c 4B-X/	.	.	.	.	.	.	.
4FF/	.	.	4A\	ją	.	.	.	.
.	8f 8c 8A/	.	.	.	.	.	.	.
=125	=125	=125	=125	=125	=125	=125	=125	=125
4EE/	8r	.	4B-X\	to-	.	2.ryy	.	.
.	4g 4c 4B-X/	.	.	.	.	.	.	.
4C/	.	.	4E\	-nów	.	.	.	.
.	4e 4c 4G/	.	.	.	.	.	.	.
4BB-X/)	.	.	4d\	sło-	.	.	.	.
.	8dd 8g 8e/	.	.	.	.	.	.	.
!!LO:LB:g=original
=126	=126	=126	=126	=126	=126	=126	=126	=126
(<4AA/	8r	.	(2c\	-dy-	.	2.ryy	.	.
.	4cc 4a 4f/	.	.	.	.	.	.	.
4G\	.	.	.	.	.	.	.	.
.	4ee 4cc 4b-X\	.	.	.	.	.	.	.
4F\	.	.	4A\)	.	.	.	.	.
.	8ff 8cc 8a\	.	.	.	.	.	.	.
=127	=127	=127	=127	=127	=127	=127	=127	=127
4D\	8r	.	4F\	-czą,	.	2.ryy	.	.
.	4g#X 4f 4Bn/	.	.	.	.	.	.	.
4C/	.	.	8r	.	.	.	.	.
.	4a 4f 4c/	.	8E\	A	.	.	.	.
4AA/)	.	.	8F\	o-	.	.	.	.
.	8cc 8f 8c/	.	8A\	-na	.	.	.	.
=128	=128	=128	=128	=128	=128	=128	=128	=128
(4GGn/	8r	.	2A\	snad-	.	2.ryy	.	.
.	4a 4d 4B-X/	.	.	.	.	.	.	.
4FF/	.	.	.	.	.	.	.	.
.	4a 4d 4B-/	.	.	.	.	.	.	.
4DD/	.	.	4BB-X/	-nie	.	.	.	.
.	8g 8d 8B-/	.	.	.	.	.	.	.
=129	=129	=129	=129	=129	=129	=129	=129	=129
8FF/L	8r	.	4.D\	pieś-	.	2.ryy	.	.
8EE/J	4g 4c 4B-X/	.	.	.	.	.	.	.
4GG/	.	.	.	.	.	.	.	.
.	4b-X 4e 4c/	.	8C/	-nią	.	.	.	.
4C/)	.	.	8E\	nie-	.	.	.	.
.	8e 8c 8B-/	.	8G\	-wol-	.	.	.	.
=130	=130	=130	=130	=130	=130	=130	=130	=130
(4DD/	8r	.	2B-X\	-ni-	.	2.ryy	.	.
.	4b-X 4f 4B-X/	.	.	.	.	.	.	.
4EE/	.	.	.	.	.	.	.	.
.	4g 4c 4B-/	.	.	.	.	.	.	.
4FF/	.	.	4A\	-czą	.	.	.	.
.	8a 8c 8A/	.	.	.	.	.	.	.
=131	=131	=131	=131	=131	=131	=131	=131	=131
8AA/L	8r	.	4D#X\	da	.	2.ryy	.	.
8BB-X/J	4d#X 4c#X 4G/	.	.	.	.	.	.	.
4AA/	.	.	4E\	się	.	.	.	.
.	4e 4c# 4G/	.	.	.	.	.	.	.
4CC#X/)	.	.	4A\	u-	.	.	.	.
.	8a 8e 8A/	.	.	.	.	.	.	.
!!LO:LB:g=original
=132	=132	=132	=132	=132	=132	=132	=132	=132
(4EE/	8r	.	2.G\	-po-	.	2.ryy	.	.
.	4g 4c#X 4A/	.	.	.	.	.	.	.
4DD/	.	.	.	.	.	.	.	.
.	4g 4d 4A/	.	.	.	.	.	.	.
4CC#X/	.	.	.	.	.	.	.	.
.	8g 8e 8A/	.	.	.	.	.	.	.
=133	=133	=133	=133	=133	=133	=133	=133	=133
4DD/	8r	.	2F\	-ić.	.	2.ryy	.	.
.	4f 4d 4A/	.	.	.	.	.	.	.
4EE/	.	.	.	.	.	.	.	.
.	4f 4d 4A/	.	.	.	.	.	.	.
4FF/)	.	.	4r	.	.	.	.	.
.	8f 8d 8F/	.	.	.	.	.	.	.
=134	=134	=134	=134	=134	=134	=134	=134	=134
!	!	!LO:DY:a=2	!	!	!	!	!	!
(<4AA-X/	8r	mf	2.r	.	.	2.ryy	.	.
.	4f 4d-X 4F/	.	.	.	.	.	.	.
4BBBn/	.	.	.	.	.	.	.	.
.	4f 4d- 4F/	.	.	.	.	.	.	.
4AA-/	.	.	.	.	.	.	.	.
.	8f 8d- 8F/	.	.	.	.	.	.	.
=135	=135	=135	=135	=135	=135	=135	=135	=135
4EE/	8r	.	2A-X\	sam	.	2.ryy	.	.
.	4f 4d-X 4F/	.	.	.	.	.	.	.
4FF/	.	.	.	.	.	.	.	.
.	4f 4d- 4F/	.	.	.	.	.	.	.
8E-X\L	.	.	4BBn/	to	.	.	.	.
8D-X\J)	8f 8d- 8F/	.	.	.	.	.	.	.
=136	=136	=136	=136	=136	=136	=136	=136	=136
(4EEn/	8r	.	2G\	uj-	.	2.ryy	.	.
.	4f 4d-X 4F/	.	.	.	.	.	.	.
4FF/	.	.	.	.	.	.	.	.
.	4f 4d- 4F/	.	.	.	.	.	.	.
8D-X/L	.	.	4F\	-rzysz	.	.	.	.
8BBn/J)	8f 8d- 8F/	.	.	.	.	.	.	.
=137	=137	=137	=137	=137	=137	=137	=137	=137
(4C/	8r	.	(2E\	pa-	.	2.ryy	.	.
.	4e 4d-X 4B-X/	.	.	.	.	.	.	.
4GG/	.	.	.	.	.	.	.	.
.	4e 4c 4B-/	.	.	.	.	.	.	.
4BB-X/)	.	.	4d-X\)	.	.	.	.	.
.	8f 8d- 8G/	.	.	.	.	.	.	.
!!LO:LB:g=original
=138	=138	=138	=138	=138	=138	=138	=138	=138
(8EE/L	8r	.	[2.c\	-nie!	.	2.ryy	.	.
8FF/J	4a-X 4c 4B-X/	.	.	.	.	.	.	.
4GG/	.	.	.	.	.	.	.	.
.	4e 4c 4B-/	.	.	.	.	.	.	.
4DD-X/)	.	.	.	.	.	.	.	.
.	8f 8d-X 8B-/	.	.	.	.	.	.	.
=139||	=139||	=139||	=139||	=139||	=139||	=139||	=139||	=139||
!!!key: f
!!!OMD: Allegro agitato.
*k[b-e-a-d-]	*k[b-e-a-d-]	*	*k[b-e-a-d-]	*	*	*k[b-e-a-d-]	*	*
*M4/4	*M4/4	*	*M4/4	*	*	*M4/4	*	*
*met(c)	*met(c)	*	*met(c)	*	*	*met(c)	*	*
!	!LO:TX:a:B:t=Allegro agitato.	!	!	!	!	!	!	!
4CC/	4g 4en 4B-/	.	4c\]	.	.	1ryy	.	.
4r	4r	.	4r	.	.	.	.	.
!	!	!LO:DY:a=2	!	!	!	!	!	!
8r	8r	f	2r	.	.	.	.	.
!	!LO:TX:t=P:problem:mixed beam	!	!	!	!	!	!	!
8ryy	16BBn</LL	.	.	.	.	.	.	.
.	16Bn\JJ	.	.	.	.	.	.	.
!	!LO:TX:t=P:problem:mixed beam	!	!	!	!	!	!	!
4ryy	16C</LL	.	.	.	.	.	.	.
.	16c\	.	.	.	.	.	.	.
.	16F</	.	.	.	.	.	.	.
.	16f\JJ	.	.	.	.	.	.	.
=140	=140	=140	=140	=140	=140	=140	=140	=140
!	!LO:TX:t=P:problem:mixed beam	!	!	!	!	!	!	!
1ryy	16En</LL	.	1r	.	.	1ryy	.	.
.	16en\	.	.	.	.	.	.	.
.	16D-X</	.	.	.	.	.	.	.
.	16d-X\JJ	.	.	.	.	.	.	.
!	!LO:TX:t=P:problem:mixed beam	!	!	!	!	!	!	!
.	16E</LL	.	.	.	.	.	.	.
.	16e\	.	.	.	.	.	.	.
.	16A-</	.	.	.	.	.	.	.
.	16a-\JJ	.	.	.	.	.	.	.
!	!LO:TX:t=P:problem:mixed beam	!	!	!	!	!	!	!
.	16Bn</LL	.	.	.	.	.	.	.
.	16bn\	.	.	.	.	.	.	.
.	16G</	.	.	.	.	.	.	.
.	16g\JJ	.	.	.	.	.	.	.
!	!LO:TX:t=P:problem:mixed beam	!	!	!	!	!	!	!
.	16d-</LL	.	.	.	.	.	.	.
.	16dd-\	.	.	.	.	.	.	.
.	16c</	.	.	.	.	.	.	.
.	16cc\JJ	.	.	.	.	.	.	.
=141	=141	=141	=141	=141	=141	=141	=141	=141
!	!LO:TX:t=P:problem:mixed beam	!	!	!	!	!	!	!
2ryy	16En</LL	.	1r	.	.	1ryy	.	.
.	16en\	.	.	.	.	.	.	.
.	16D-</	.	.	.	.	.	.	.
.	16d-\JJ	.	.	.	.	.	.	.
!	!LO:TX:t=P:problem:mixed beam	!	!	!	!	!	!	!
.	16E</LL	.	.	.	.	.	.	.
.	16e\	.	.	.	.	.	.	.
.	16A-</	.	.	.	.	.	.	.
.	16a-\JJ	.	.	.	.	.	.	.
!	!LO:TX:t=P:problem:mixed beam	!	!	!	!	!	!	!
4ryy	16Bn</LL	.	.	.	.	.	.	.
.	16bn\	.	.	.	.	.	.	.
.	16G</	.	.	.	.	.	.	.
.	16g\JJ	.	.	.	.	.	.	.
8BBnL 8BBBn^^/	8ffL 8dd-X 8g^^\	.	.	.	.	.	.	.
8BBJ 8BBB^^/	8ffJ 8dd- 8g^^\	.	.	.	.	.	.	.
!!LO:PB:g=original
=142	=142	=142	=142	=142	=142	=142	=142	=142
!	!LO:TX:t=P:problem:mixed beam	!	!	!	!	!	!	!
8ryy	16Bn</LL	.	1ryy	.	.	1r	.	.
.	16bn\	.	.	.	.	.	.	.
8ryy	16G</	.	.	.	.	.	.	.
.	16g\JJ	.	.	.	.	.	.	.
8GGL 8GGG^^</	8aa-L 8ff 8dd-X 8b 8g^^\	.	.	.	.	.	.	.
8GGJ 8GGG^^</	8aa-J 8ff 8dd- 8b 8g\	.	.	.	.	.	.	.
!	!LO:TX:t=P:problem:mixed beam	!	!	!	!	!	!	!
4ryy	16B</LL	.	.	.	.	.	.	.
.	16b\	.	.	.	.	.	.	.
.	16G</	.	.	.	.	.	.	.
.	16g\JJ	.	.	.	.	.	.	.
8GGL 8GGG^^</	8aa-L 8ff 8dd- 8b 8g^^\	.	.	.	.	.	.	.
8GGJ 8GGG^^</	8aa-J 8ff 8dd- 8b 8g^^\	.	.	.	.	.	.	.
=143	=143	=143	=143	=143	=143	=143	=143	=143
8.GGL 8.GGG^^</	8.aa-L 8.ff 8.dd- 8.b- 8.g^^\	.	1ryy	.	.	2r	.	.
16GGJk 16GGG/	16aa-Jk 16ff 16dd- 16b- 16g\	.	.	.	.	.	.	.
4C 4CC^^</	4gg 4een 4cc 4g^^\	.	.	.	.	.	.	.
2r	2r	.	.	.	.	4r	.	.
!	!	!	!	!	!	!	!	!LO:DY:a:rj
.	.	.	.	.	.	4c\	Na	f
=144	=144	=144	=144	=144	=144	=144	=144	=144
8r	8r	.	1ryy	.	.	1f	bo-	.
!	!	!LO:DY:rj	!	!	!	!	!	!
8f 8d-X\	16dd-X\LL	f	.	.	.	.	.	.
.	16ff\JJ	.	.	.	.	.	.	.
8enL 8c\	16cc\LL	.	.	.	.	.	.	.
.	16een\	.	.	.	.	.	.	.
8cJ 8A-\	16a-\	.	.	.	.	.	.	.
.	16cc\JJ	.	.	.	.	.	.	.
8e-XL 8c\	16ee-X\LL	.	.	.	.	.	.	.
.	16cc\	.	.	.	.	.	.	.
8dnJ 8Bn\	16ddn\	.	.	.	.	.	.	.
.	16bn\JJ	.	.	.	.	.	.	.
8d-XL 8B-X\	16dd-X\LL	.	.	.	.	.	.	.
.	16b-X\	.	.	.	.	.	.	.
8B-J 8G\	16g\	.	.	.	.	.	.	.
.	16b-\JJ	.	.	.	.	.	.	.
=145	=145	=145	=145	=145	=145	=145	=145	=145
8cL 8A-\	16a-/LL	.	1ryy	.	.	2F\	-gów!	.
.	16cc/	.	.	.	.	.	.	.
8BnJ 8G\	16g/	.	.	.	.	.	.	.
.	16bn/JJ	.	.	.	.	.	.	.
8cL 8A-\	16a-/LL	.	.	.	.	.	.	.
.	16cc/	.	.	.	.	.	.	.
8BJ 8G\	16g/	.	.	.	.	.	.	.
.	16b/JJ	.	.	.	.	.	.	.
8cL 8A-\	16cc\LL	.	.	.	.	2r	.	.
.	16a-\	.	.	.	.	.	.	.
8e-J 8c\	16ee-\	.	.	.	.	.	.	.
.	16cc\JJ	.	.	.	.	.	.	.
8d-L 8B-X\	16dd-\LL	.	.	.	.	.	.	.
.	16b-X\	.	.	.	.	.	.	.
8cJ 8A-\	16cc\	.	.	.	.	.	.	.
.	16a-\JJ	.	.	.	.	.	.	.
!!LO:LB:g=original
=146	=146	=146	=146	=146	=146	=146	=146	=146
8d-L 8B-\	16dd-\LL	.	1ryy	.	.	1d-	Li-	.
.	16b-\	.	.	.	.	.	.	.
8c 8A-\	16cc\	.	.	.	.	.	.	.
.	16a-\JJ	.	.	.	.	.	.	.
8B- 8G\	16b-/LL	.	.	.	.	.	.	.
.	16g/	.	.	.	.	.	.	.
8cJ 8A-\	16cc/	.	.	.	.	.	.	.
.	16a-/JJ	.	.	.	.	.	.	.
8B-L 8G\	16b-/LL	.	.	.	.	.	.	.
.	16g/	.	.	.	.	.	.	.
8A- 8F\	16a-/	.	.	.	.	.	.	.
.	16f/JJ	.	.	.	.	.	.	.
8G 8En\	16g/LL	.	.	.	.	.	.	.
.	16en/	.	.	.	.	.	.	.
8A-J 8F\	16a-/	.	.	.	.	.	.	.
.	16f/JJ	.	.	.	.	.	.	.
=147	=147	=147	=147	=147	=147	=147	=147	=147
8GL 8En\	16g/LL	.	1ryy	.	.	2G\	-via,	.
.	16en/	.	.	.	.	.	.	.
8F 8D-\	16f/	.	.	.	.	.	.	.
.	16d-/JJ	.	.	.	.	.	.	.
8E 8C\	16e/LL	.	.	.	.	.	.	.
.	16c/	.	.	.	.	.	.	.
8FJ 8D-\	16f/	.	.	.	.	.	.	.
.	16d-/JJ	.	.	.	.	.	.	.
8EL 8C/	16e/LL	.	.	.	.	2r	.	.
.	16c/	.	.	.	.	.	.	.
8D- 8BB-/	16d-/	.	.	.	.	.	.	.
.	16B-/JJ	.	.	.	.	.	.	.
8C 8AA-/	16c/LL	.	.	.	.	.	.	.
.	16A-/	.	.	.	.	.	.	.
8BB-J 8GG/	16B-/	.	.	.	.	.	.	.
.	16G/JJ	.	.	.	.	.	.	.
=148	=148	=148	=148	=148	=148	=148	=148	=148
4AA- 4FF/	4A- 4F/	.	1ryy	.	.	4r	.	.
4r	4r	.	.	.	.	8.A-\	nik-	.
.	.	.	.	.	.	16F\	-cze-	.
!	!LO:N:vis=4	!	!	!	!	!	!	!
2r	2r	.	.	.	.	4Bn\	-mni-	.
.	.	.	.	.	.	4c\	-ku	.
=149	=149	=149	=149	=149	=149	=149	=149	=149
8r	8r	.	1ryy	.	.	2e-\	sta-	.
8e- 8c 8A- 8F\	16ee-LL 16cc 16a-\	.	.	.	.	.	.	.
.	16f\JJ	.	.	.	.	.	.	.
8e-L 8c 8A- 8F\	16ee-LL 16cc 16a-\	.	.	.	.	.	.	.
.	16f\	.	.	.	.	.	.	.
8e-J 8c 8A- 8F\	16ee- 16cc 16a-\	.	.	.	.	.	.	.
.	16f\JJ	.	.	.	.	.	.	.
8d- 8c 8A- 8F\	8dd- 8cc 8a- 8f/	.	.	.	.	4d-\	-ry!	.
8r	8r	.	.	.	.	.	.	.
4r	(16a-\LL	.	.	.	.	4r	.	.
.	16dd-\	.	.	.	.	.	.	.
.	16ee-\	.	.	.	.	.	.	.
.	16ff\JJ)	.	.	.	.	.	.	.
!!LO:LB:g=original
=150	=150	=150	=150	=150	=150	=150	=150	=150
4En 4C 4EEn/	4gg 4cc 4g\	.	1ryy	.	.	2c\	wy-	.
4r	4r	.	.	.	.	.	.	.
2r	2r	.	.	.	.	4.F#X\	-znaj	.
.	.	.	.	.	.	8G\	że	.
=151	=151	=151	=151	=151	=151	=151	=151	=151
8r	8r	.	1ryy	.	.	4d-\	kła-	.
8GG 8GGG/	16ffLL 16dd- 16bn\	.	.	.	.	.	.	.
.	16f\JJ	.	.	.	.	.	.	.
8GGL 8GGG/	16ffLL 16dd- 16b\	.	.	.	.	4d-\	-miesz!	.
.	16f\	.	.	.	.	.	.	.
8GGJ 8GGG/	16ff 16dd- 16b\	.	.	.	.	.	.	.
.	16f\JJ	.	.	.	.	.	.	.
8GG 8GGG/	8ff 8dd- 8b\	.	.	.	.	2r	.	.
8r	8r	.	.	.	.	.	.	.
4r	(16cc\LL	.	.	.	.	.	.	.
.	16dd-\	.	.	.	.	.	.	.
.	16ee-\	.	.	.	.	.	.	.
.	16ff\JJ)	.	.	.	.	.	.	.
=152	=152	=152	=152	=152	=152	=152	=152	=152
8r	2gg 2een 2cc 2g^^\	.	1ryy	.	.	1r	.	.
(16CC/LL	.	.	.	.	.	.	.	.
16EEn/JJ	.	.	.	.	.	.	.	.
16AA-/LL	.	.	.	.	.	.	.	.
16GG/	.	.	.	.	.	.	.	.
16BBn/	.	.	.	.	.	.	.	.
16C/JJ)	.	.	.	.	.	.	.	.
4.D- 4.DD-/	4.bn 4.g 4.f/	.	.	.	.	.	.	.
8C 8CC/	8cc 8g 8en/	.	.	.	.	.	.	.
=153	=153	=153	=153	=153	=153	=153	=153	=153
4GG 4GGG^^/	4aa- 4ff 4dd-X 4bn^^\	.	1ryy	.	.	1r	.	.
4C 4CC^^/	4gg 4een 4cc 4g^^\	.	.	.	.	.	.	.
2r	2r	.	.	.	.	.	.	.
!!LO:LB:g=original
=154	=154	=154	=154	=154	=154	=154	=154	=154
!	!	!	!	!	!	!	!	!LO:DY:a:rj
4F 4D-\	16d-/LL	p	1ryy	.	.	4.F\	Gdy-	p
.	16f/	.	.	.	.	.	.	.
.	16d-/	.	.	.	.	.	.	.
.	16f/JJ	.	.	.	.	.	.	.
4E- 4C\	16c/LL	.	.	.	.	.	.	.
.	16e-/	.	.	.	.	.	.	.
.	16c/	.	.	.	.	(16G\LL	-by	.
.	16e-/JJ	.	.	.	.	16A-\JJ)	.	.
4D- 4BB-/	16B-/LL	.	.	.	.	4.B-\	tak	.
.	16d-/	.	.	.	.	.	.	.
.	16B-/	.	.	.	.	.	.	<
.	16d-/JJ	.	.	.	.	.	.	.
4A- 4F\	16f/LL	.	.	.	.	.	.	.
.	16a-/	.	.	.	.	.	.	.
.	16f/	.	.	.	.	(16c\LL	być	.
.	16a-/JJ	.	.	.	.	16d-\JJ)	.	.
=155	=155	=155	=155	=155	=155	=155	=155	=155
!	!	!LO:HP:t=cre-scen-do:ext2=ud	!	!	!	!	!	!
4G-X 4E-\	16e-/LL	<	1ryy	.	.	(4e-\	mia-	.
.	16g-X/	.	.	.	.	.	.	.
.	16e-/	.	.	.	.	.	.	.
.	16g-/JJ	.	.	.	.	.	.	.
4F 4D-\	16d-/LL	.	.	.	.	4B-\)	.	.
.	16f/	.	.	.	.	.	.	.
.	16d-/	.	.	.	.	.	.	.
.	16f/JJ	.	.	.	.	.	.	.
4E- 4C\	16c/LL	.	.	.	.	4c\	-ło.	.
.	16e-/	.	.	.	.	.	.	.
.	16c/	.	.	.	.	.	.	.
.	16e-/JJ	.	.	.	.	.	.	.
4B- 4G-\	16g-/LL	[	.	.	.	8r	.	.
.	16b-/	.	.	.	.	.	.	.
.	16g-/	.	.	.	.	8c\	To	.
.	16b-/JJ	.	.	.	.	.	.	.
=156	=156	=156	=156	=156	=156	=156	=156	=156
!	!	!	!	!	!	!	!	!LO:DY:a
4A- 4F\	16f/LL	.	1ryy	.	.	4.d-\	ser-	f
.	16a-/	.	.	.	.	.	.	.
.	16f/	.	.	.	.	.	.	.
.	16a-/JJ	.	.	.	.	.	.	.
4G-X 4E-\	16e-/LL	.	.	.	.	.	.	.
.	16g-X/	.	.	.	.	.	.	.
.	16e-/	.	.	.	.	8c\	-ce	.
.	16g-/JJ	.	.	.	.	.	.	.
4F 4D-\	16d-/LL	.	.	.	.	4.d-\	ta-	.
.	16f/	.	.	.	.	.	.	.
.	16d-/	.	.	.	.	.	.	.
.	16f/JJ	.	.	.	.	.	.	.
8c 8A-\	16a-/LL	.	.	.	.	.	.	.
.	16cc/	.	.	.	.	.	.	.
8r	16a-/	.	.	.	.	8e-\	-ką	.
.	16cc/JJ	.	.	.	.	.	.	.
!!LO:LB:g=original
=157	=157	=157	=157	=157	=157	=157	=157	=157
4G-X 4GG-X/	16ffLL 16dd- 16b-\	f	1ryy	.	.	[2f\	zem-	.
.	16g-X\	.	.	.	.	.	.	.
.	16ff 16dd- 16b-\	.	.	.	.	.	.	.
.	16g-\JJ	.	.	.	.	.	.	.
4E- 4EE-/	16ffLL 16dd- 16b-\	.	.	.	.	.	.	.
.	16g-\	.	.	.	.	.	.	.
.	16ff 16dd- 16b-\	.	.	.	.	.	.	.
.	16g-\JJ	.	.	.	.	.	.	.
4C 4CC/	16ffLL 16dd- 16b-\	.	.	.	.	8f\]	.	.
.	16g-\	.	.	.	.	.	.	.
.	16ee- 16b-\	.	.	.	.	8e-\	-stą	.
.	16g-\JJ	.	.	.	.	.	.	.
4F 4FF/	16bnLL 16an/	.	.	.	.	8Bn\	by	.
.	16e-/	.	.	.	.	.	.	.
.	16cc 16a/	.	.	.	.	8c\	za-	.
.	16e-/JJ	.	.	.	.	.	.	.
=158	=158	=158	=158	=158	=158	=158	=158	=158
4BB-X 4BBB-X/	16eenLL 16dd- 16b-X\	ff	1ryy	.	.	(8d-\L	-wrza-	.
.	16en\	.	.	.	.	.	.	.
.	16ff 16dd- 16b-\	.	.	.	.	8B-X\J)	.	.
.	16f\JJ	.	.	.	.	.	.	.
4D- 4DD-^^/	4bb- 4ff 4dd- 4b-^^\	mf	.	.	.	4F\	-ło.	.
2r	16r	.	.	.	.	2r	.	.
.	(16dd-\LL	>	.	.	.	.	.	.
.	16cc\	.	.	.	.	.	.	.
.	16b-\JJ	.	.	.	.	.	.	.
.	16an/LL	.	.	.	.	.	.	.
.	16b-/	.	.	.	.	.	.	.
.	16g-X/	.	.	.	.	.	.	.
.	16f/JJ)	]]	.	.	.	.	.	.
=159	=159	=159	=159	=159	=159	=159	=159	=159
!	!	!	!	!	!	!	!	!LO:DY:a:rj
4En 4C\	16en/LL	.	1ryy	.	.	4d-\	Ta-	f
.	16c/	.	.	.	.	.	.	.
.	16e/	.	.	.	.	.	.	.
.	16c/JJ	.	.	.	.	.	.	.
4F 4D-\	16f/LL	<	.	.	.	8.c\	-kie	.
.	16d-/	.	.	.	.	.	.	.
.	16f/	.	.	.	.	.	.	.
.	16d-/JJ	.	.	.	.	16B-\	bym	.
4F#X 4Dn\	16f#X/LL	.	.	.	.	4A-\	mę-	.
.	16dn/	.	.	.	.	.	.	.
.	16f#/	.	.	.	.	.	.	.
.	16d/JJ	.	.	.	.	.	.	.
4Gn 4En\	16gn/LL	.	.	.	.	4Gn\	-ki	.
.	16en/	.	.	.	.	.	.	.
.	16g/	.	.	.	.	.	.	.
.	16e/JJ	[[	.	.	.	.	.	.
!!LO:PB:g=original
=160	=160	=160	=160	=160	=160	=160	=160	=160
4A- 4F\	16f/LL	.	1ryy	.	.	8Bn\	zes-	.
.	16a-/	.	.	.	.	.	.	.
.	16f/	.	.	.	.	8c\	-łał	.
.	16a-/JJ	.	.	.	.	.	.	.
4C 4AA-/	16A-/LL	.	.	.	.	8En\	jej	.
.	16c/	.	.	.	.	.	.	.
.	16A-/	.	.	.	.	8F\	i	.
.	16c/JJ	.	.	.	.	.	.	.
4BB- 4GG/	16G/LL	.	.	.	.	(8e-X\L	ka-	.
.	16B-/	.	.	.	.	.	.	.
.	16G/	.	.	.	.	8d-\J)	.	.
.	16B-/JJ	.	.	.	.	.	.	.
4C 4AA-/	16A-/LL	.	.	.	.	4c\	-ry,	.
.	16c/	.	.	.	.	.	.	.
.	16A-/	.	.	.	.	.	.	.
.	16c/JJ	.	.	.	.	.	.	.
=161	=161	=161	=161	=161	=161	=161	=161	=161
4AAn 4FF/	16e-/LL	.	1ryy	.	.	8r	.	.
.	16g-X/	.	.	.	.	.	.	.
.	16e-/	.	.	.	.	8G-X\	że	.
.	16g-/JJ	.	.	.	.	.	.	.
4BB- 4GGn/	16d-/LL	.	.	.	.	8F\	o-	.
.	16f/	.	.	.	.	.	.	.
.	16d-/	.	.	.	.	8Bn\	-kro-	.
.	16f/JJ	.	.	.	.	.	.	.
4C 4AAn/	16c/LL	.	.	.	.	8c\	-pniej-	.
.	16e-/	.	.	.	.	.	.	.
.	16f/	.	.	.	.	8d-\	-szych	.
.	16cc/JJ	.	.	.	.	.	.	.
4F 4FF/	16e-/LL	.	.	.	.	8e-\	nie	.
.	16an/	.	.	.	.	.	.	.
.	16cc/	.	.	.	.	8c\	zna	.
.	16ee-/JJ	.	.	.	.	.	.	.
=162	=162	=162	=162	=162	=162	=162	=162	=162
4.G-X 4.GG-X/	4.een 4.dd- 4.b- 4.en/	.	1ryy	.	.	4.d-\	pie-	.
8D- 8DD-/	8ff 8dd- 8an 8f\	.	.	.	.	8An\	-kieł	.
[2D- [2DD-/	[2ff [2dd- [2b- [2f\	.	.	.	.	[2B-\	król.	.
!!LO:LB:g=original
=163	=163	=163	=163	=163	=163	=163	=163	=163
8D-] 8DD-/]	8ff] 8dd-] 8b-] 8f\]	.	1ryy	.	.	4B-\]	.	.
8f\L	16r	.	.	.	.	.	.	.
.	16ff\LL	.	.	.	.	.	.	.
!	!	!	!	!	!	!LO:TX:a:B:t=(siada i zamyśla się ponuro&colon;)	!	!
8d-\	16r	.	.	.	.	4r	.	.
.	16dd-\	.	.	.	.	.	.	.
8An\J	16r	.	.	.	.	.	.	.
.	16an\JJ	.	.	.	.	.	.	.
8d-\L	16r	.	.	.	.	2r	.	.
.	16dd-/LL	.	.	.	.	.	.	.
8A\	16r	.	.	.	.	.	.	.
.	16a/	.	.	.	.	.	.	.
8F\	16r	.	.	.	.	.	.	.
.	16f/	.	.	.	.	.	.	.
8A\J	16r	.	.	.	.	.	.	.
.	16a/JJ	.	.	.	.	.	.	.
=164	=164	=164	=164	=164	=164	=164	=164	=164
8F/L	16r	.	1ryy	.	.	1r	.	.
.	16f/LL	>	.	.	.	.	.	.
8D-/	16r	.	.	.	.	.	.	.
.	16d-/	.	.	.	.	.	.	.
8AAn/	16r	.	.	.	.	.	.	.
.	16An/	.	.	.	.	.	.	.
8D-/J	16r	.	.	.	.	.	.	.
.	16d-/JJ	.	.	.	.	.	.	.
8AA/L	16r	.	.	.	.	.	.	.
.	16A/LL	]	.	.	.	.	.	.
8D-/	16r	.	.	.	.	.	.	.
.	16d-/	.	.	.	.	.	.	.
8AA/	16r	.	.	.	.	.	.	.
.	16A/	.	.	.	.	.	.	.
8FF/J	16r	.	.	.	.	.	.	.
*kcancel	*kcancel	*	*kcancel	*	*	*kcancel	*	*
.	16F/JJ	.	.	.	.	.	.	.
=165||	=165||	=165||	=165||	=165||	=165||	=165||	=165||	=165||
!!!key: A
*k[f#c#g#]	*k[f#c#g#]	*	*k[f#c#g#]	*	*	*k[f#c#g#]	*	*
(16FF#\LL	(16F#</LL	p	1ryy	.	.	1r	.	.
16EE#X\	16E#X</	.	.	.	.	.	.	.
16FF#\	16F#</	.	.	.	.	.	.	.
16CC#\JJ	16C#</JJ	.	.	.	.	.	.	.
16FF#\LL	16F#</LL	.	.	.	.	.	.	.
16GG#\	16G#</	.	.	.	.	.	.	.
16AA\	16A</	.	.	.	.	.	.	.
16BB\JJ	16B</JJ	.	.	.	.	.	.	.
16C#\LL	16c#</LL	.	.	.	.	.	.	.
16BB#X\	16B#X</	.	.	.	.	.	.	.
16C#\	16c#</	.	.	.	.	.	.	.
16D\JJ	16d</JJ	.	.	.	.	.	.	.
16C#\LL	16c#</LL	.	.	.	.	.	.	.
16BBn\	16Bn</	.	.	.	.	.	.	.
16AA\	16A</	.	.	.	.	.	.	.
16GG#\JJ)	16G#</JJ	.	.	.	.	.	.	.
=166	=166	=166	=166	=166	=166	=166	=166	=166
(<16FF#\LL	8F#</)	.	1ryy	.	.	1r	.	.
16EE#X\	.	.	.	.	.	.	.	.
16FF#\	8r	.	.	.	.	.	.	.
16CC#\JJ	.	.	.	.	.	.	.	.
16FF#/LL	8ddL 8a 8f#'/	.	.	.	.	.	.	.
16GG#/	.	.	.	.	.	.	.	.
16AA/	8cc#J 8a 8f#'/	.	.	.	.	.	.	.
16BB/JJ	.	.	.	.	.	.	.	.
16C#/LL	4.a 4.c# 4.A/	.	.	.	.	.	.	.
16BB#X/	.	.	.	.	.	.	.	.
16C#/	.	.	.	.	.	.	.	.
16D/JJ	.	.	.	.	.	.	.	.
16C#/LL	.	.	.	.	.	.	.	.
16BBn/	.	.	.	.	.	.	.	.
16AA/	8e#X 8c# 8A/	.	.	.	.	.	.	.
16GG#/JJ)	.	.	.	.	.	.	.	.
!!LO:LB:g=original
=167	=167	=167	=167	=167	=167	=167	=167	=167
!	!	!	!LO:TX:a:B:t=Silva. (na boku)	!	!LO:DY:a:rj	!	!	!
(16FF#/LL	[1f# [1c# [1A	.	2c#\	Ty	p	1ryy	.	.
16EE#X/	.	.	.	.	.	.	.	.
16FF#/	.	.	.	.	.	.	.	.
16CC#/JJ	.	.	.	.	.	.	.	.
16FF#/LL	.	.	.	.	.	.	.	.
16GG#/	.	.	.	.	.	.	.	.
16AA/	.	.	.	.	.	.	.	.
16BB/JJ	.	.	.	.	.	.	.	.
16C#/LL	.	.	4.A\	zem-	.	.	.	.
16BB#X/	.	.	.	.	.	.	.	.
16C#/	.	.	.	.	.	.	.	.
16D/JJ	.	.	.	.	.	.	.	.
16C#/LL	.	.	.	.	.	.	.	.
16BBn/	.	.	.	.	.	.	.	.
16AA/	.	.	8d\	-stę	.	.	.	.
16GG#/JJ)	.	.	.	.	.	.	.	.
=168	=168	=168	=168	=168	=168	=168	=168	=168
(16FF#/LL	4f#] 4c#] 4A/]	.	4c#\	wy-	.	1ryy	.	.
16EE#X/	.	.	.	.	.	.	.	.
16FF#/	.	.	.	.	.	.	.	.
16CC#/JJ	.	.	.	.	.	.	.	.
16FF#/LL	8aL 8c# 8A'/	.	4F#\	-wrzesz.	.	.	.	.
16GG#/	.	.	.	.	.	.	.	.
16AA/	8g#J 8c# 8A'/	.	.	.	.	.	.	.
16BB/JJ	.	.	.	.	.	.	.	.
16C#/LL	4f# 4c# 4A/	.	2r	.	.	.	.	.
16BB#X/	.	.	.	.	.	.	.	.
16C#/	.	.	.	.	.	.	.	.
16D/JJ	.	.	.	.	.	.	.	.
16C#/LL	4en 4c# 4A/	.	.	.	.	.	.	.
16BBn/	.	.	.	.	.	.	.	.
16AA/	.	.	.	.	.	.	.	.
16GG#/JJ)	.	.	.	.	.	.	.	.
=169	=169	=169	=169	=169	=169	=169	=169	=169
(16FF#/LL	4d 4B/	.	2d^^\	Ty	.	1ryy	.	.
16EE#X/	.	.	.	.	.	.	.	.
16FF#/	.	.	.	.	.	.	.	.
16DD/JJ	.	.	.	.	.	.	.	.
16FF#/LL	4cc# 4f# 4d/	<	.	.	.	.	.	.
16GG#/	.	.	.	.	.	.	.	.
16BB/	.	.	.	.	.	.	.	.
16GG#/JJ	.	.	.	.	.	.	.	.
16FF#/LL	2b 2g# 2d/	.	4G#\	pom-	.	.	.	.
16EE#/	.	.	.	.	.	.	.	.
16FF#/	.	.	.	.	.	.	.	.
16EE#/JJ	.	[	.	.	.	.	.	.
16FF#/LL	.	.	8.A\	-ścisz	<	.	.	.
16EE#/	.	.	.	.	.	.	.	.
16FF#/	.	.	.	.	.	.	.	.
16EE#/JJ)	.	.	16B\	mój	[[	.	.	.
!!LO:LB:g=original
=170	=170	=170	=170	=170	=170	=170	=170	=170
!	!	!	!	!	!LO:DY:a:t=rj	!	!	!
16EEn/LL	[1ccn [1a-X [1cn	.	[1cn	ból!	f	1ryy	.	.
16En/	.	.	.	.	.	.	.	.
16EE/	.	.	.	.	.	.	.	.
16E/JJ	.	.	.	.	.	.	.	.
16EE-X/LL	.	.	.	.	.	.	.	.
16E-X/	.	.	.	.	.	.	.	.
16EE-/	.	.	.	.	.	.	.	.
16E-/JJ	.	.	.	.	.	.	.	.
16DD/LL	.	.	.	.	.	.	.	.
16D/	.	.	.	.	.	.	.	.
16DD/	.	.	.	.	.	.	.	.
16D/JJ	.	.	.	.	.	.	.	.
16EE-/LL	.	.	.	.	.	.	.	.
16E-/	.	.	.	.	.	.	.	.
16EE-/	.	.	.	.	.	.	.	.
16E-/JJ	.	.	.	.	.	.	.	.
=171	=171	=171	=171	=171	=171	=171	=171	=171
4En 4EEn/	4cc] 4a-] 4c/]	.	4c\]	.	.	1ryy	.	.
!	!	!	!LO:TX:a:B:t=(zbliża się zwolna do Procula)	!	!	!	!	!
8.r	8.r	.	4r	.	.	.	.	.
16E\	16e/	p	.	.	.	.	.	.
4E\	4e/	.	2r	.	.	.	.	.
4E\	4e/	.	.	.	.	.	.	.
=172	=172	=172	=172	=172	=172	=172	=172	=172
16EE/LL	[1b [1gn [1B	f	1r	.	.	1ryy	.	.
16E/	.	.	.	.	.	.	.	.
16EE/	.	.	.	.	.	.	.	.
16E/JJ	.	.	.	.	.	.	.	.
16DD#X/LL	.	.	.	.	.	.	.	.
16D#X/	.	.	.	.	.	.	.	.
16DD#/	.	.	.	.	.	.	.	.
16D#/JJ	.	.	.	.	.	.	.	.
16DDn/LL	.	.	.	.	.	.	.	.
16Dn/	.	.	.	.	.	.	.	.
16DD/	.	.	.	.	.	.	.	.
16D/JJ	.	.	.	.	.	.	.	.
16DD#X/LL	.	.	.	.	.	.	.	.
16D#X/	.	.	.	.	.	.	.	.
16DD#/	.	.	.	.	.	.	.	.
16D#/JJ	.	.	.	.	.	.	.	.
=173	=173	=173	=173	=173	=173	=173	=173	=173
4E 4EE/	4b] 4g] 4B/]	.	1r	.	.	1ryy	.	.
8.r	8.r	.	.	.	.	.	.	.
16E\	16e/	.	.	.	.	.	.	.
4E\	4e/	.	.	.	.	.	.	.
4E\	4e/	.	.	.	.	.	.	.
!!LO:LB:g=original
=174||	=174||	=174||	=174||	=174||	=174||	=174||	=174||	=174||
!!!OMD: Molto moderato.
*M3/4	*M3/4	*	*M3/4	*	*	*M3/4	*	*
*^	*	*	*	*	*	*	*	*
!	!	!LO:TX:a:B:t=Molto moderato.	!	!	!	!	!	!	!
(4E/	[2.FF#\	[4gn [4e [4c# [4A#X/	p	2.r	.	.	2.ryy	.	.
4AA#X/	.	8g] 8e] 8c#] 8A#/]	.	.	.	.	.	.	.
.	.	4g 4e 4c# 4A#/	.	.	.	.	.	.	.
4E/	.	.	.	.	.	.	.	.	.
.	.	[8g [8e [8c# [8A#/	.	.	.	.	.	.	.
=175	=175	=175	=175	=175	=175	=175	=175	=175	=175
4BB#X/	2FF#\]	8g] 8e] 8c#] 8A#/]	.	2.r	.	.	2.ryy	.	.
.	.	4gn 4e 4c# 4A#X/	.	.	.	.	.	.	.
4C#/	.	.	.	.	.	.	.	.	.
.	.	4g 4e 4c# 4A#/	.	.	.	.	.	.	.
8An/L	4r	.	.	.	.	.	.	.	.
8Gn/J)	.	8g 8e 8c# 8A#/	.	.	.	.	.	.	.
*v	*v	*	*	*	*	*	*	*	*
=176	=176	=176	=176	=176	=176	=176	=176	=176
!	!	!	!LO:TX:a:B:t=(podstępnie)	!	!	!	!	!
(<4F#\	8f# 8e 8c# 8A#X/	.	2F#\	Ly-	.	2.ryy	.	.
.	4f# 4e 4c# 4A#/	.	.	.	.	.	.	.
4C#/	.	.	.	.	.	.	.	.
.	4cc# 4e 4c#/	.	.	.	.	.	.	.
4E\	.	.	8.Gn\	-kon	.	.	.	.
.	8b 8gn 8c#/	.	.	.	.	.	.	.
.	.	.	16E\	tak	.	.	.	.
=177	=177	=177	=177	=177	=177	=177	=177	=177
!	!	!	!	!	!LO:DY:a	!	!	!
4GG##X/	8r	.	(2c#\	pię-	<	2.ryy	.	.
.	4b 4e 4c#/	.	.	.	.	.	.	.
4AA#X/	.	.	.	.	.	.	.	.
.	4a#X 4e 4c#/	.	.	.	.	.	.	.
8D/L	.	.	4B\)	.	[	.	.	.
8C#/J)	8ee 8b 8gn 8e/	.	.	.	.	.	.	.
=178	=178	=178	=178	=178	=178	=178	=178	=178
4FF#/	4ee 4a#X 4f# 4e/	.	2A#X\	-kny...	.	2.ryy	.	.
!	!	!LO:DY:a=2	!	!	!	!	!	!
(16F#\LL	4r	p	.	.	.	.	.	.
16Gn\	.	.	.	.	.	.	.	.
16F#\	.	.	.	.	.	.	.	.
16E#X\JJ	.	.	.	.	.	.	.	.
16F#\LL	4r	.	4r	.	.	.	.	.
16G\	.	.	.	.	.	.	.	.
16F#\	.	.	.	.	.	.	.	.
16E#\JJ	.	.	.	.	.	.	.	.
=179	=179	=179	=179	=179	=179	=179	=179	=179
!	!LO:TX:a:B:t=Poco meno.	!	!	!	!	!	!	!
16F#\LL	2.r	.	2.r	.	.	2.ryy	.	.
16Gn\	.	.	.	.	.	.	.	.
16F#\	.	.	.	.	.	.	.	.
16E#X\JJ	.	.	.	.	.	.	.	.
16F#\LL	.	.	.	.	.	.	.	.
16G\	.	.	.	.	.	.	.	.
16F#\	.	.	.	.	.	.	.	.
16E#\JJ	.	.	.	.	.	.	.	.
16F#\LL	.	.	.	.	.	.	.	.
16En\	.	.	.	.	.	.	.	.
16C#\	.	.	.	.	.	.	.	.
16E\JJ)	.	.	.	.	.	.	.	.
!!LO:LB:g=original
=180	=180	=180	=180	=180	=180	=180	=180	=180
(4D\	8r	.	2F#\	Ser-	.	2.ryy	.	.
.	4f# 4d 4F#/	.	.	.	.	.	.	.
4AA#X/	.	.	.	.	.	.	.	.
.	4f# 4d 4F#/	.	.	.	.	.	.	.
4D\	.	.	(8E#X\L	-ce	.	.	.	.
.	8f# 8d 8F#/	.	8F#\J)	.	.	.	.	.
=181	=181	=181	=181	=181	=181	=181	=181	=181
4AA#X/	8r	.	4c#\	Li-	.	2.ryy	.	.
.	4f# 4d 4F#/	.	.	.	.	.	.	.
4BB/	.	.	4B\	-vii	.	.	.	.
.	4f# 4d 4F#/	.	.	.	.	.	.	.
8F#\L	.	.	4d\	tak	.	.	.	.
8E\J)	8f# 8d 8F#/	.	.	.	.	.	.	.
=182	=182	=182	=182	=182	=182	=182	=182	=182
(4D\	8r	.	(2.d\	tkli-	.	2.ryy	.	.
.	4f# 4d 4F#/	.	.	.	.	.	.	.
4AA#X/	.	.	.	.	.	.	.	.
.	4f# 4d 4F#/	.	.	.	.	.	.	.
4D\	.	.	.	.	.	.	.	.
.	8f# 8d 8F#/	.	.	.	.	.	.	.
.	.	.	16qF#/)	.	.	.	.	.
=183	=183	=183	=183	=183	=183	=183	=183	=183
4AA#X/	8r	.	2F#\	-we.	.	2.ryy	.	.
.	4f# 4d 4F#/	.	.	.	.	.	.	.
4BB/	.	.	.	.	.	.	.	.
.	4f# 4d 4F#/	.	.	.	.	.	.	.
8GGn/L	.	.	4r	.	.	.	.	.
8FF#/J)	8r	.	.	.	.	.	.	.
=184||	=184||	=184||	=184||	=184||	=184||	=184||	=184||	=184||
!!!OMD: Allegro agitato.
*M4/4	*M4/4	*	*M4/4	*	*	*M4/4	*	*
*met(c)	*met(c)	*	*met(c)	*	*	*met(c)	*	*
!	!	!	!	!	!	!LO:TX:a:B:t=Proculus.	!	!
!	!LO:TX:a:B:t=Allegro agitato.	!	!	!	!	!	!	!
1r	1r	.	1ryy	.	.	2r	.	.
.	.	.	.	.	.	4r	.	.
.	.	.	.	.	.	8r	.	.
!	!	!	!	!	!	!	!	!LO:DY:a:rj
.	.	.	.	.	.	8d\	A	f
=185	=185	=185	=185	=185	=185	=185	=185	=185
4C# 4CC#/	4dd 4b 4g#X 4e#X/	sfz	1ryy	.	.	(4d\	ja	.
4r	4r	.	.	.	.	8.c#\)	.	.
.	.	.	.	.	.	16B\	mu	.
4C#/	(16e#/LL	f	.	.	.	4A\	ser-	.
.	16c#/	.	.	.	.	.	.	.
.	16B#X/	.	.	.	.	.	.	.
.	16c#/JJ	.	.	.	.	.	.	.
4BB/	16g#/LL	.	.	.	.	4G#\	-ce	.
.	16c#/	.	.	.	.	.	.	.
.	16e#/	.	.	.	.	.	.	.
.	16g#/JJ)	.	.	.	.	.	.	.
!!LO:LB:g=original
=186	=186	=186	=186	=186	=186	=186	=186	=186
*	*^	*	*	*	*	*	*	*
4AA^^</	4cc# 4f# 4c#^^</	4ryy	.	1ryy	.	.	8B#X\	z cia-	.
.	.	.	.	.	.	.	8c#\	-ła	.
4r	4r	4ryy	.	.	.	.	8E#X\	wy-	.
.	.	.	.	.	.	.	8F#\	-drę	.
4GG# 4GGG#/	(8een/L	4b 4f#\	.	.	.	.	(8en\L	ży-	.
.	8dd/J)	.	.	.	.	.	8d\J)	.	.
4AA 4AAA/	4cc# 4a 4f#/	4ryy	.	.	.	.	8c#\	-we.	.
*kcancel	*kcancel	*kcancel	*	*kcancel	*	*kcancel	*	*	*
.	.	.	.	.	.	.	8r	.	.
*	*v	*v	*	*	*	*	*	*	*
=187||	=187||	=187||	=187||	=187||	=187||	=187||	=187||	=187||
!!!key: c
*k[b-e-a-]	*k[b-e-a-]	*	*k[b-e-a-]	*	*	*k[b-e-a-]	*	*
*tremolo	*	*	*	*	*	*	*	*
32GGG/LLL	2ffn 2dd 2b- 2an\	ff	1ryy	.	.	2r	.	.
32GG/	.	.	.	.	.	.	.	.
32GGG/	.	.	.	.	.	.	.	.
32GG/	.	.	.	.	.	.	.	.
32GGG/	.	.	.	.	.	.	.	.
32GG/	.	.	.	.	.	.	.	.
32GGG/	.	.	.	.	.	.	.	.
32GG/	.	.	.	.	.	.	.	.
32GGG/	.	.	.	.	.	.	.	.
32GG/	.	.	.	.	.	.	.	.
32GGG/	.	.	.	.	.	.	.	.
32GG/	.	.	.	.	.	.	.	.
32GGG/	.	.	.	.	.	.	.	.
32GG/	.	.	.	.	.	.	.	.
32GGG/	.	.	.	.	.	.	.	.
32GG/	.	.	.	.	.	.	.	.
32GGG/	4.ee- 4.cc 4.a 4.f\	.	.	.	.	4A-\	Zgnio-	.
32GG/	.	.	.	.	.	.	.	.
32GGG/	.	.	.	.	.	.	.	.
32GG/	.	.	.	.	.	.	.	.
32GGG/	.	.	.	.	.	.	.	.
32GG/	.	.	.	.	.	.	.	.
32GGG/	.	.	.	.	.	.	.	.
32GG/	.	.	.	.	.	.	.	.
32GGG/	.	.	.	.	.	8F\	-tę,	.
32GG/	.	.	.	.	.	.	.	.
32GGG/	.	.	.	.	.	.	.	.
32GG/	.	.	.	.	.	.	.	.
32GGG/	8dd 8a 8f/	.	.	.	.	16r	.	.
32GG/	.	.	.	.	.	.	.	.
32GGG/	.	.	.	.	.	16d\	roz-	.
32GG/JJJ	.	.	.	.	.	.	.	.
=188	=188	=188	=188	=188	=188	=188	=188	=188
32GGG/LLL	2cc 2a- 2f 2d/	.	1ryy	.	.	2c\	-szar-	.
32GG/	.	.	.	.	.	.	.	.
32GGG/	.	.	.	.	.	.	.	.
32GG/	.	.	.	.	.	.	.	.
32GGG/	.	.	.	.	.	.	.	.
32GG/	.	.	.	.	.	.	.	.
32GGG/	.	.	.	.	.	.	.	.
32GG/	.	.	.	.	.	.	.	.
32GGG/	.	.	.	.	.	.	.	.
32GG/	.	.	.	.	.	.	.	.
32GGG/	.	.	.	.	.	.	.	.
32GG/	.	.	.	.	.	.	.	.
32GGG/	.	.	.	.	.	.	.	.
32GG/	.	.	.	.	.	.	.	.
32GGG/	.	.	.	.	.	.	.	.
32GG/	.	.	.	.	.	.	.	.
32GGG/	2bn 2g 2f 2d/	.	.	.	.	2Bn\	-pię,	.
32GG/	.	.	.	.	.	.	.	.
32GGG/	.	.	.	.	.	.	.	.
32GG/	.	.	.	.	.	.	.	.
32GGG/	.	.	.	.	.	.	.	.
32GG/	.	.	.	.	.	.	.	.
32GGG/	.	.	.	.	.	.	.	.
32GG/	.	.	.	.	.	.	.	.
32GGG/	.	.	.	.	.	.	.	.
32GG/	.	.	.	.	.	.	.	.
32GGG/	.	.	.	.	.	.	.	.
32GG/	.	.	.	.	.	.	.	.
32GGG/	.	.	.	.	.	.	.	.
32GG/	.	.	.	.	.	.	.	.
32GGG/	.	.	.	.	.	.	.	.
32GG/JJJ	.	.	.	.	.	.	.	.
*Xtremolo	*	*	*	*	*	*	*	*
=189	=189	=189	=189	=189	=189	=189	=189	=189
!	!	!	!LO:TX:a:B:t=Silva.	!	!	!	!	!
8E- 8EE-/	8cc 8g 8e- 8c/	.	4F#X\	A-	.	1ryy	.	.
8r	8r	.	.	.	.	.	.	.
4r	16c/LL	mf	4G\	-le	.	.	.	.
.	16e-/	.	.	.	.	.	.	.
.	16c/	.	.	.	.	.	.	.
.	16e-/JJ	.	.	.	.	.	.	.
4.E- 4.EE-/	16f/LL	.	4BBn/	jej	.	.	.	.
.	16a-/	.	.	.	.	.	.	.
.	16f/	.	.	.	.	.	.	.
.	16a-/JJ	.	.	.	.	.	.	.
.	16e-/LL	.	4C/	nie	.	.	.	.
.	16g/	.	.	.	.	.	.	.
8E- 8EE-/	16e-/	.	.	.	.	.	.	.
.	16g/JJ	.	.	.	.	.	.	.
!!LO:LB:g=original
=190	=190	=190	=190	=190	=190	=190	=190	=190
2D 2DD/	16b-XLL 16f/	.	(4B-X\	zła-	.	1ryy	.	.
.	16Bn/	.	.	.	.	.	.	.
.	16b- 16f/	.	.	.	.	.	.	.
.	16B/JJ	.	.	.	.	.	.	.
.	16a-LL 16f/	<	4A-\)	.	.	.	.	.
.	16B/	.	.	.	.	.	.	.
.	16a- 16f/	.	.	.	.	.	.	.
.	16B/JJ	.	.	.	.	.	.	.
4E- 4EE-/	16gLL 16e-/	.	4G\	-miesz.	.	.	.	.
.	(16c/	.	.	.	.	.	.	.
.	16e-/	.	.	.	.	.	.	.
.	16f#X/JJ	[	.	.	.	.	.	.
4r	16g/LL	.	4r	.	.	.	.	.
.	16bn/	.	.	.	.	.	.	.
.	16cc/	.	.	.	.	.	.	.
.	16ee-/JJ)	.	.	.	.	.	.	.
=191	=191	=191	=191	=191	=191	=191	=191	=191
!	!	!	!	!	!	!LO:TX:a:B:t=Proculus.	!	!
4FF 4FFF^^/	2gg-X 2ee- 2cc 2an^^\	.	1ryy	.	.	[1An	Ha!	.
(16E-\LL	.	.	.	.	.	.	.	.
16G-X\	.	.	.	.	.	.	.	.
16An\	.	.	.	.	.	.	.	.
16c\JJ	.	.	.	.	.	.	.	.
4e-\)	4.ff 4.dd-X^^\	.	.	.	.	.	.	.
4r	.	.	.	.	.	.	.	.
.	8ee- 8cc\	.	.	.	.	.	.	.
=192	=192	=192	=192	=192	=192	=192	=192	=192
4FF 4FFF/	2dd-X 2b-^^\	.	1ryy	.	.	4A\]	.	.
(16C\LL	.	.	.	.	.	4r	.	.
16E-\	.	.	.	.	.	.	.	.
16G-X\	.	.	.	.	.	.	.	.
16An\JJ	.	.	.	.	.	.	.	.
4c\)	2cc 2an^^\	.	.	.	.	2r	.	.
4r	.	.	.	.	.	.	.	.
=193	=193	=193	=193	=193	=193	=193	=193	=193
*	*^	*	*	*	*	*	*	*
4GGn 4GGGn/	2bn/	2a-X 2f^^\	.	1ryy	.	.	1r	.	.
(16BBn\LL	.	.	.	.	.	.	.	.	.
16Dn\	.	.	.	.	.	.	.	.	.
16F\	.	.	.	.	.	.	.	.	.
16A-X\JJ	.	.	.	.	.	.	.	.	.
4Bn\)	4b/	4.g 4.e-\	.	.	.	.	.	.	.
4r	4b/	.	.	.	.	.	.	.	.
.	.	8f 8dn\	.	.	.	.	.	.	.
*	*v	*v	*	*	*	*	*	*	*
!!LO:LB:g=original
=194	=194	=194	=194	=194	=194	=194	=194	=194
!	!	!	!LO:TX:a:B:t=Silva.	!	!	!	!	!
4C 4CC/	2b-X 2g 2en 2d-X/	.	1r	.	.	1ryy	.	.
(16BBn\LL	.	.	.	.	.	.	.	.
16C\	.	.	.	.	.	.	.	.
16D-X\	.	.	.	.	.	.	.	.
16En\JJ	.	.	.	.	.	.	.	.
8F\)	2a- 2f 2c 2A-/	.	.	.	.	.	.	.
8r	.	.	.	.	.	.	.	.
(16EEn/LL	.	.	.	.	.	.	.	.
16FF/	.	.	.	.	.	.	.	.
16GG/	.	.	.	.	.	.	.	.
16AA-/JJ	.	.	.	.	.	.	.	.
=195	=195	=195	=195	=195	=195	=195	=195	=195
!	!	!	!LO:TX:a:B:t=(znacząco)	!	!	!	!	!
2BB-/)	2g-X 2d-X 2B- 2G-X/	p	2r	.	.	1ryy	.	.
!	!	!	!	!	!LO:DY:a:rj	!	!	!
2r	2r	.	4.G-X\	O-	p	.	.	.
.	.	.	8F\	-na	.	.	.	.
=196	=196	=196	=196	=196	=196	=196	=196	=196
1r	1r	.	2A-\	ko-	.	1ryy	.	.
.	.	.	2G-X\	-cha	.	.	.	.
=197	=197	=197	=197	=197	=197	=197	=197	=197
!	!	!	!	!	!	!LO:TX:a:B:t=Proculus.	!	!
1r	1r	.	1ryy	.	.	4r	.	.
!	!	!	!	!	!	!	!	!LO:DY:a:rj
.	.	.	.	.	.	8F\	Nie	f
.	.	.	.	.	.	8G-X\	wol-	.
.	.	.	.	.	.	4B-\	-ni-	.
.	.	.	.	.	.	4d-X\	-ku	.
=198	=198	=198	=198	=198	=198	=198	=198	=198
*tremolo	*	*	*	*	*	*	*	*
32CC/LLL	1ff 1dd-X 1bn 1gn	.	1ryy	.	.	1f	kła-	.
32C/	.	.	.	.	.	.	.	.
32CC/	.	.	.	.	.	.	.	.
32C/	.	.	.	.	.	.	.	.
32CC/	.	.	.	.	.	.	.	.
32C/	.	.	.	.	.	.	.	.
32CC/	.	.	.	.	.	.	.	.
32C/JJJ	.	.	.	.	.	.	.	.
32CC/LLL	.	.	.	.	.	.	.	.
32C/	.	.	.	.	.	.	.	.
32CC/	.	.	.	.	.	.	.	.
32C/	.	.	.	.	.	.	.	.
32CC/	.	.	.	.	.	.	.	.
32C/	.	.	.	.	.	.	.	.
32CC/	.	.	.	.	.	.	.	.
32C/JJJ	.	.	.	.	.	.	.	.
32CC/LLL	.	.	.	.	.	.	.	.
32C/	.	.	.	.	.	.	.	.
32CC/	.	.	.	.	.	.	.	.
32C/	.	.	.	.	.	.	.	.
32CC/	.	.	.	.	.	.	.	.
32C/	.	.	.	.	.	.	.	.
32CC/	.	.	.	.	.	.	.	.
32C/JJJ	.	.	.	.	.	.	.	.
32CC/LLL	.	.	.	.	.	.	.	.
32C/	.	.	.	.	.	.	.	.
32CC/	.	.	.	.	.	.	.	.
32C/	.	.	.	.	.	.	.	.
32CC/	.	.	.	.	.	.	.	.
32C/	.	.	.	.	.	.	.	.
32CC/	.	.	.	.	.	.	.	.
32C/JJJ	.	.	.	.	.	.	.	.
*Xtremolo	*	*	*	*	*	*	*	*
!!LO:LB:g=original
=199	=199	=199	=199	=199	=199	=199	=199	=199
4C 4CC/	4een 4cc 4g\	.	1ryy	.	.	2en\	-miesz!	.
4G 4En\	16en/LL	.	.	.	.	.	.	.
.	16g/	.	.	.	.	.	.	.
.	16e/	.	.	.	.	.	.	.
.	16g/JJ	.	.	.	.	.	.	.
4A- 4F\	16f/LL	.	.	.	.	2r	.	.
.	16a-/	.	.	.	.	.	.	.
.	16f/	.	.	.	.	.	.	.
.	16a-/JJ	.	.	.	.	.	.	.
4B- 4G\	16g/LL	.	.	.	.	.	.	.
.	16b-/	.	.	.	.	.	.	.
.	16g/	.	.	.	.	.	.	.
.	16b-/JJ	.	.	.	.	.	.	.
=200	=200	=200	=200	=200	=200	=200	=200	=200
!	!	!	!LO:TX:a:B:t=Silva.	!	!	!	!	!
8c 8A-\	8cc 8a-\	.	4r	.	.	1ryy	.	.
8r	8r	.	.	.	.	.	.	.
!	!	!	!	!	!LO:DY:a:rj	!	!	!
4r	16cc\LL	p	4c\	Nie	f	.	.	.
.	16ee-X\	<	.	.	.	.	.	.
.	16cc\	.	.	.	.	.	.	.
.	16ee-\JJ	.	.	.	.	.	.	.
4.FF 4.FFF/	16b-\LL	.	4En\	zła-	.	.	.	.
.	16dd-X\	.	.	.	.	.	.	.
.	16b-\	.	.	.	.	.	.	.
.	16dd-\JJ	.	.	.	.	.	.	.
.	16a-\LL	.	4F\	-miesz	.	.	.	.
.	16cc\	.	.	.	.	.	.	.
8FF 8FFF/	16a-\	.	.	.	.	.	.	.
.	16cc\JJ	[	.	.	.	.	.	.
=201	=201	=201	=201	=201	=201	=201	=201	=201
2GG 2GGG/	16bnLL 16f/	f	(4e-X\	Li-	.	1ryy	.	.
.	16e-/	.	.	.	.	.	.	.
.	16b 16f/	.	.	.	.	.	.	.
.	16e-/JJ	.	.	.	.	.	.	.
.	16ffLL 16b\	.	4d-X\)	.	.	.	.	.
.	16f\	.	.	.	.	.	.	.
.	16ff 16b\	.	.	.	.	.	.	.
.	16f\JJ	.	.	.	.	.	.	.
2AA- 2AAA-/	16ffLL 16cc\	.	4c\	-vii,	.	.	.	.
.	(16g\	.	.	.	.	.	.	.
.	16b-X\	.	.	.	.	.	.	.
.	16a-\JJ	.	.	.	.	.	.	.
.	16f\LL	.	4r	.	.	.	.	.
.	16a-\	.	.	.	.	.	.	.
.	16cc\	.	.	.	.	.	.	.
.	16ff\JJ)	.	.	.	.	.	.	.
!!LO:PB:g=original
=202	=202	=202	=202	=202	=202	=202	=202	=202
2BB- 2BBB-/	(16dd-X\LL	.	4r	.	.	1ryy	.	.
.	16b-\	.	.	.	.	.	.	.
.	16dd-\	.	.	.	.	.	.	.
.	16b-\JJ	.	.	.	.	.	.	.
.	16g\LL	.	8.B-\	chy-	.	.	.	.
.	16b-\	.	.	.	.	.	.	.
.	16dd-\	.	.	.	.	.	.	.
.	16gg\JJ)	.	16A-\	-ba	.	.	.	.
2D-X 2DD-X/	(16b-/LL	.	4G\	z mą	.	.	.	.
.	16g/	.	.	.	.	.	.	.
.	16b-/	.	.	.	.	.	.	.
.	16g/JJ	.	.	.	.	.	.	.
.	16f\LL	.	4B-\	po-	.	.	.	.
.	16g\	.	.	.	.	.	.	.
.	16b-\	.	.	.	.	.	.	.
.	16ff\JJ)	.	.	.	.	.	.	.
=203	=203	=203	=203	=203	=203	=203	=203	=203
2F 2FF/	(16g/LL	.	2D-X\	-mo-	.	1ryy	.	.
.	16d-X/	.	.	.	.	.	.	.
.	16g/	.	.	.	.	.	.	.
.	16d-/JJ	.	.	.	.	.	.	.
.	16B-/LL	.	.	.	.	.	.	.
.	16d-/	.	.	.	.	.	.	.
.	16g/	.	.	.	.	.	.	.
.	16b-/JJ)	.	.	.	.	.	.	.
8EnL 8EEn/	8g 8c/	>	2C/	-cą	.	.	.	.
8D-X/	4en 4G/	.	.	.	.	.	.	.
8C/	.	.	.	.	.	.	.	.
8BB-/J	8e 8c 8G/	]]	.	.	.	.	.	.
=204	=204	=204	=204	=204	=204	=204	=204	=204
(2AA-/	8f 8F/	p	4r	.	.	1ryy	.	.
*	*clefF4	*	*	*	*	*	*	*
.	4c 4A- 4C\	.	.	.	.	.	.	.
.	.	.	4C/	A	.	.	.	.
.	4c 4A- 4C\	.	.	.	.	.	.	.
4EEn/	.	.	4G\	Sil-	.	.	.	.
.	4c 4A- 4C\	.	.	.	.	.	.	.
4AA-/	.	.	4F\	-va	.	.	.	.
.	8c 8A- 8C\	.	.	.	.	.	.	.
=205	=205	=205	=205	=205	=205	=205	=205	=205
4EEn/	8r	.	(4.c\	sta-	.	1ryy	.	.
.	4c 4A- 4C\	.	.	.	.	.	.	.
4FF/	.	.	.	.	.	.	.	.
.	4c 4A- 4C\	.	8B-\)	.	.	.	.	.
4C/	.	.	4A-\	-ry	.	.	.	.
.	4c 4A- 4C\	.	.	.	.	.	.	.
4BB-/)	.	.	4G\	po-	.	.	.	.
.	8c 8A- 8C\	.	.	.	.	.	.	.
!!LO:LB:g=original
=206	=206	=206	=206	=206	=206	=206	=206	=206
(2AA-/	8r	.	(4F\	-moc-	.	1ryy	.	.
.	4c 4A- 4C\	.	.	.	.	.	.	.
.	.	.	4d-X\)	.	.	.	.	.
.	4c 4A- 4C\	.	.	.	.	.	.	.
4EEn/	.	.	4c\	-nym	.	.	.	.
.	4c 4A- 4C\	.	.	.	.	.	.	.
4AA-/	.	.	4A-\	ci	.	.	.	.
.	8c 8A- 8C\	.	.	.	.	.	.	.
=207	=207	=207	=207	=207	=207	=207	=207	=207
4EEn/	8r	.	(4.G\	bę-	.	1ryy	.	.
*	*clefG2	*	*	*	*	*	*	*
.	4g 4c 4G/	.	.	.	.	.	.	.
4FF/	.	.	.	.	.	.	.	.
.	4a- 4c 4A-/	<	8A-\)	.	.	.	.	.
4DD-X/	.	.	4F\	-dzie.	.	.	.	.
.	4a- 4f 4A-/	.	.	.	.	.	.	.
4CC/)	.	.	4r	.	.	.	.	.
.	8cc 8a- 8c/	.	.	.	.	.	.	.
=208	=208	=208	=208	=208	=208	=208	=208	=208
(<2BBn 2BBBn/	8ddn 8g 8dn/	.	4r	.	.	1ryy	.	.
.	4dd 4g 4d/	.	.	.	.	.	.	.
.	.	.	4Dn\	I	.	.	.	.
.	4bn 4g 4d/	.	.	.	.	.	.	.
4FF/	.	.	4A-\	ta-	.	.	.	.
.	4dd 4b 4d/	.	.	.	.	.	.	.
4BB/	.	.	4G\	-kie	.	.	.	.
.	8gg 8dd 8g\	.	.	.	.	.	.	.
=209	=209	=209	=209	=209	=209	=209	=209	=209
4EEn/	8r	.	(4.d\	strasz-	.	1ryy	.	.
.	4aa- 4bn 4a-\	.	.	.	.	.	.	.
4FF/	.	.	.	.	.	.	.	.
.	4gg 4b 4g\	.	8c\)	.	.	.	.	.
4D\	.	.	4Bn\	-ne	.	.	.	.
.	4ff 4b 4f\	.	.	.	.	.	.	.
4C/)	.	.	4A-\	da	.	.	.	.
.	8a- 8f 8e-X/	.	.	.	.	.	.	.
=210	=210	=210	=210	=210	=210	=210	=210	=210
(2BBn/	8g 8f 8d/	.	(4G\	zem-	.	1ryy	.	.
.	4g 4f 4d/	.	.	.	.	.	.	.
.	.	.	4e-\)	.	.	.	.	.
.	4ee- 4g 4e-/	.	.	.	.	.	.	.
4FF/	.	.	4d\	-sty	.	.	.	.
.	4dd 4bn 4d/	.	.	.	.	.	.	.
4BB/	.	.	4Bn\	na-	.	.	.	.
.	8b 8g 8d/	.	.	.	.	.	.	.
=211	=211	=211	=211	=211	=211	=211	=211	=211
4EEn/	8r	.	2A-\	-rzę-	.	1ryy	.	.
.	4cc 4a- 4d/	.	.	.	.	.	.	.
4FF/	.	.	.	.	.	.	.	.
.	4cc 4a- 4d/	.	.	.	.	.	.	.
4BBn/	.	.	4G\	-dzie,	.	.	.	.
.	4bn 4g 4d/	.	.	.	.	.	.	.
8AA-/L	.	.	4r	.	.	.	.	.
8GG/J)	8dd 8b 8g\	.	.	.	.	.	.	.
!!LO:LB:g=original
=212	=212	=212	=212	=212	=212	=212	=212	=212
2E- 2EE-/	8gg 8cc 8g\	f	4r	.	.	1ryy	.	.
.	4gg 4cc 4g\	.	.	.	.	.	.	.
.	.	.	4G\	że	.	.	.	.
.	4cc 4g\	.	.	.	.	.	.	.
4BBn 4BBBn/	.	.	4d\	wszel-	.	.	.	.
.	4ff 4dd 4g\	.	.	.	.	.	.	.
4E- 4EE-/	.	.	4c\	-ki	.	.	.	.
.	8ee- 8cc 8g\	.	.	.	.	.	.	.
=213	=213	=213	=213	=213	=213	=213	=213	=213
4BBn 4BBBn/	8r	.	(4.e-\	o-	.	1ryy	.	.
.	4ee- 4g 4e-/	.	.	.	.	.	.	.
4C 4CC/	.	.	.	.	.	.	.	.
.	4gg 4ee- 4g\	.	8d\)	.	.	.	.	.
4A- 4AA-\	.	.	2c\	-pór	.	.	.	.
.	4cc 4f 4c/	.	.	.	.	.	.	.
4G 4GG/	.	.	.	.	.	.	.	.
.	8ee- 8cc 8e-/	.	.	.	.	.	.	.
=214	=214	=214	=214	=214	=214	=214	=214	=214
2E- 2EE-/	8r	.	4Bn\	rę-	.	1ryy	.	.
.	4bn 4g 4Bn/	.	.	.	.	.	.	.
.	.	.	4c\	-ce	.	.	.	.
.	4cc 4g 4c/	.	.	.	.	.	.	.
4BBn 4BBBn/	.	.	4A-\	twe	.	.	.	.
.	4dd 4f 4d/	.	.	.	.	.	.	.
4E- 4EE-/	.	.	4G\	zdruz-	.	.	.	.
.	8cc 8g 8c/	.	.	.	.	.	.	.
=215	=215	=215	=215	=215	=215	=215	=215	=215
4D-X 4DD-X/	4dd-X 4a- 4f 4d-X/	.	(8F\L	-go-	.	1ryy	.	.
.	.	.	8A-\J)	.	.	.	.	.
4f 4A- 4D-\	4ddd-X 4aa- 4ff 4dd-\	sf	4d-X\	-czą.	.	.	.	.
2r;	2r;	.	2r;	.	.	.	.	.
=216	=216	=216	=216	=216	=216	=216	=216	=216
[1BB- [1BBB-	[1d-X< [1B-< [1F< [1D-X<^^	ff	1r	.	.	1ryy	.	.
=217	=217	=217	=217	=217	=217	=217	=217	=217
!	!	!	!	!	!LO:DY:a:rj	!	!	!
2BB-] 2BBB-\]	2d-<] 2B-<] 2F<] 2D-</]	.	2d-X\	Zem-	ff	1ryy	.	.
2C#X 2CC#X\	2c#X< 2An< 2En<^^/	.	4.An\	-stę	.	.	.	.
.	.	.	(16B-\LL	mieć	.	.	.	.
.	.	.	16c\JJ)	.	.	.	.	.
=218	=218	=218	=218	=218	=218	=218	=218	=218
1FF#X 1FFF#X	1c#X< 1An< 1F#X< 1C#X<	.	2d-X\	bę-	.	1ryy	.	.
.	.	.	2D-X\	-dziesz	.	.	.	.
!!LO:LB:g=original
=219	=219	=219	=219	=219	=219	=219	=219	=219
1Cn 1DDn	1c< 1An< 1F#X<^^	.	4r	.	.	1ryy	.	.
.	.	.	8.F#X\	ja-	.	.	.	.
.	.	.	16An\	-kiej	.	.	.	.
.	.	.	4dn\	pra-	.	.	.	.
.	.	.	4c\	-gną	.	.	.	.
=220	=220	=220	=220	=220	=220	=220	=220	=220
[1GG [1GGG	[1Bn [1A-X [1Fn [1D	.	1e-	bo-	.	1ryy	.	.
=221	=221	=221	=221	=221	=221	=221	=221	=221
2GG] 2GGG/]	2B] 2A-] 2F] 2D/]	.	2d\	-gi.	.	2ryy	.	.
4r	4r;	.	4ryy	.	.	4r;	.	.
8.r	8.r	.	4ryy	.	.	8.r	.	.
!	!	!	!	!	!	!LO:TX:a:B:t=Proculus.	!	!LO:DY:a:rj
(<16C/	(16g 16e- 16c/	p	.	.	.	16G\	I	mf
=222	=222	=222	=222	=222	=222	=222	=222	=222
4..F\	4..a- 4..f 4..c/	.	1ryy	.	.	4..A-\	ty	.
16E-\	16b- 16g 16e-/	.	.	.	.	16B-\	wresz	.
4..AA-/)	4..a- 4..e- 4..c/)	.	.	.	.	4..A-\	zem-	.
(<16C/	(16g 16e- 16c/	.	.	.	.	16G\	-stą	.
=223	=223	=223	=223	=223	=223	=223	=223	=223
4..F\	4..a- 4..f 4..c/	.	1ryy	.	.	(4..A-\	star-	.
16C/)	16cc 16g 16e-/)	.	.	.	.	16c\)	.	.
4C/	4cc 4g 4e-/	.	.	.	.	4c\	-cze!	.
8.r	8.r	.	.	.	.	4r	.	.
!	!	!LO:DY:rj	!	!	!	!	!	!
(16C/	(16e- 16c 16G/	mf	.	.	.	.	.	.
=224	=224	=224	=224	=224	=224	=224	=224	=224
4..FF/)	4..f 4..d-X 4..A-/)	.	1ryy	.	.	1r	.	.
(<16AA-/	(>16e- 16c 16A-/	.	.	.	.	.	.	.
4..D-X\)	4..f 4..d- 4..A-/)	.	.	.	.	.	.	.
16GG/	16g 16dn 16Bn/	.	.	.	.	.	.	.
!!LO:LB:g=original
=225	=225	=225	=225	=225	=225	=225	=225	=225
*^	*	*	*	*	*	*	*	*
!	!	!	!	!LO:TX:a:B:t=Silva.	!	!	!	!	!
2G^^/	[1GG	8g 8d 8Bn/	.	1r	.	.	1ryy	.	.
.	.	4bn 4g 4B/	>	.	.	.	.	.	.
.	.	4b 4g 4B/	.	.	.	.	.	.	.
4C#X/	.	.	.	.	.	.	.	.	.
.	.	4b 4g 4B/	.	.	.	.	.	.	.
4G/	.	.	.	.	.	.	.	.	.
.	.	8b 8g 8B/	]	.	.	.	.	.	.
=226	=226	=226	=226	=226	=226	=226	=226	=226	=226
(4C#X/	2GG\]	8r	.	2r	.	.	1ryy	.	.
!	!	!	!LO:DY:a	!	!	!	!	!	!
.	.	4bn 4g 4Bn/	p	.	.	.	.	.	.
4D/	.	.	.	.	.	.	.	.	.
.	.	4b 4g 4B/	.	.	.	.	.	.	.
4A-/	2r	.	.	4r	.	.	.	.	.
.	.	4dd 4b 4d/	.	.	.	.	.	.	.
!	!	!	!	!	!	!LO:DY:a:rj	!	!	!
4G/)	.	.	.	8.G\	Ja	p	.	.	.
.	.	8dd 8b 8d/	.	.	.	.	.	.	.
.	.	.	.	16G\	pod	.	.	.	.
=227	=227	=227	=227	=227	=227	=227	=227	=227	=227
!	!	!	!	!	!	!LO:DY:a	!	!	!
(2F/	[2GG\	8r	.	2.G\	no-	<	1ryy	.	.
.	.	4dd 4bn 4d/	.	.	.	.	.	.	.
.	.	4dd 4b 4d/	.	.	.	.	.	.	.
4BBn/	4GG\]	.	.	.	.	.	.	.	.
.	.	4gg 4dd 4g\	.	.	.	.	.	.	.
4F/	4r	.	.	4G\	-gi	[	.	.	.
.	.	8dd 8b 8d/	.	.	.	.	.	.	.
*v	*v	*	*	*	*	*	*	*	*
=228	=228	=228	=228	=228	=228	=228	=228	=228
4AA#X/	8r	.	4d^^\	rzu-	.	1ryy	.	.
.	4dd 4bn 4d/	.	.	.	.	.	.	.
4BBn/	.	.	8.Bn\	-cę	>	.	.	.
.	4g 4d 4G/	.	.	.	.	.	.	.
.	.	.	16A-\	ci	.	.	.	.
4E-\	.	.	4G\	Li-	.	.	.	.
.	4g 4c 4G/	.	.	.	.	.	.	.
4D\)	.	.	4F\	-vią	]	.	.	.
.	8g 8Bn 8G/	.	.	.	.	.	.	.
=229	=229	=229	=229	=229	=229	=229	=229	=229
(4EEn/	8r	.	4r	.	.	1ryy	.	.
.	4a- 4c 4A-/	.	.	.	.	.	.	.
4FF/	.	.	8.A-\	Ja	.	.	.	.
.	4a- 4c 4A-/	.	.	.	.	.	.	.
.	.	.	16F\	ci	.	.	.	.
4C/	.	.	4E-X\	spo-	.	.	.	.
.	4a- 4f 4e-/	.	.	.	.	.	.	.
4BBn/)	.	.	4D\	-sób	.	.	.	.
.	8g 8f 8d/	.	.	.	.	.	.	.
=230	=230	=230	=230	=230	=230	=230	=230	=230
(4CC#X/	8r	.	2.F\	dam	.	1ryy	.	.
.	4f 4Bn 4G/	.	.	.	.	.	.	.
4DD/	.	.	.	.	.	.	.	.
.	4f 4B 4G/	.	.	.	.	.	.	.
4AA-/	.	.	.	.	.	.	.	.
.	8r	.	.	.	.	.	.	.
4GG/)	4r	.	4r	.	.	.	.	.
!!LO:PB:g=original
=231	=231	=231	=231	=231	=231	=231	=231	=231
(4AA-/	1r	.	2BBn/	chodź...	.	1ryy	.	.
4GG/	.	.	.	.	.	.	.	.
4AA-/	.	.	2r	.	.	.	.	.
4GG/	.	.	.	.	.	.	.	.
=232	=232	=232	=232	=232	=232	=232	=232	=232
4FF/	1r	.	2AA-/	słu-	.	1ryy	.	.
4EE-/	.	.	.	.	.	.	.	.
4DD/	.	.	[2AA-/	-chaj...	.	.	.	.
4CC/	.	.	.	.	.	.	.	.
=233	=233	=233	=233	=233	=233	=233	=233	=233
4BBBn/	1r	.	4AA-/]	.	.	1ryy	.	.
4AAA-/	.	.	4r	.	.	.	.	.
4BBB/	.	.	2r	.	.	.	.	.
4AAA-/)	.	.	.	.	.	.	.	.
=234	=234	=234	=234	=234	=234	=234	=234	=234
[1FFF	1r	.	2.E-\	więk-	.	1ryy	.	.
.	.	.	4D\	-szą	.	.	.	.
=235	=235	=235	=235	=235	=235	=235	=235	=235
2FFF/]	1r	.	4C/	ta-	.	1ryy	.	.
!LO:TX:a:i:t=colla parte	!	!	!	!	!	!	!	!
.	.	.	4BBn/	-jem-	.	.	.	.
2FFF#X/	.	.	4D\	-ni-	.	.	.	.
.	.	.	4AA-X/	-cę	.	.	.	.
=236	=236	=236	=236	=236	=236	=236	=236	=236
*tremolo	*	*	*	*	*	*	*	*
32GGG/LLL	1r	pp	[1GG	znam.	.	1ryy	.	.
32GG/	.	.	.	.	.	.	.	.
32GGG/	.	.	.	.	.	.	.	.
32GG/	.	.	.	.	.	.	.	.
32GGG/	.	.	.	.	.	.	.	.
32GG/	.	.	.	.	.	.	.	.
32GGG/	.	.	.	.	.	.	.	.
32GG/	.	.	.	.	.	.	.	.
32GGG/	.	.	.	.	.	.	.	.
32GG/	.	.	.	.	.	.	.	.
32GGG/	.	.	.	.	.	.	.	.
32GG/	.	.	.	.	.	.	.	.
32GGG/	.	.	.	.	.	.	.	.
32GG/	.	.	.	.	.	.	.	.
32GGG/	.	.	.	.	.	.	.	.
32GG/JJJ	.	.	.	.	.	.	.	.
32GGG/LLL	.	.	.	.	.	.	.	.
32GG/	.	.	.	.	.	.	.	.
32GGG/	.	.	.	.	.	.	.	.
32GG/	.	.	.	.	.	.	.	.
32GGG/	.	.	.	.	.	.	.	.
32GG/	.	.	.	.	.	.	.	.
32GGG/	.	.	.	.	.	.	.	.
32GG/	.	.	.	.	.	.	.	.
32GGG/	.	.	.	.	.	.	.	.
32GG/	.	.	.	.	.	.	.	.
32GGG/	.	.	.	.	.	.	.	.
32GG/	.	.	.	.	.	.	.	.
32GGG/	.	.	.	.	.	.	.	.
32GG/	.	.	.	.	.	.	.	.
!	!	!LO:HP:a=2:t=cresc. molto	!	!	!	!	!	!
32GGG/	.	<	.	.	.	.	.	.
32GG/JJJ	.	.	.	.	.	.	.	.
=237	=237	=237	=237	=237	=237	=237	=237	=237
32GGG/LLL	1r	.	4GG/]	.	.	1ryy	.	.
32GG/	.	.	.	.	.	.	.	.
32GGG/	.	.	.	.	.	.	.	.
32GG/	.	.	.	.	.	.	.	.
32GGG/	.	.	.	.	.	.	.	.
32GG/	.	.	.	.	.	.	.	.
32GGG/	.	.	.	.	.	.	.	.
32GG/	.	.	.	.	.	.	.	.
32GGG/	.	.	4r	.	.	.	.	.
32GG/	.	.	.	.	.	.	.	.
32GGG/	.	.	.	.	.	.	.	.
32GG/	.	.	.	.	.	.	.	.
32GGG/	.	.	.	.	.	.	.	.
32GG/	.	.	.	.	.	.	.	.
32GGG/	.	.	.	.	.	.	.	.
32GG/	.	.	.	.	.	.	.	.
32GGG/	.	.	2r	.	.	.	.	.
32GG/	.	.	.	.	.	.	.	.
32GGG/	.	.	.	.	.	.	.	.
32GG/	.	.	.	.	.	.	.	.
32GGG/	.	.	.	.	.	.	.	.
32GG/	.	.	.	.	.	.	.	.
32GGG/	.	.	.	.	.	.	.	.
32GG/	.	.	.	.	.	.	.	.
32GGG/	.	.	.	.	.	.	.	.
32GG/	.	.	.	.	.	.	.	.
32GGG/	.	.	.	.	.	.	.	.
32GG/	.	.	.	.	.	.	.	.
32GGG/	.	.	.	.	.	.	.	.
32GG/	.	.	.	.	.	.	.	.
32GGG/	.	.	.	.	.	.	.	.
32GG/JJJ	.	.	.	.	.	.	.	.
=238	=238	=238	=238	=238	=238	=238	=238	=238
32GGG/LLL	1r	f <	1r	.	.	1ryy	.	.
32GG/	.	.	.	.	.	.	.	.
32GGG/	.	.	.	.	.	.	.	.
32GG/	.	.	.	.	.	.	.	.
32GGG/	.	.	.	.	.	.	.	.
32GG/	.	.	.	.	.	.	.	.
32GGG/	.	.	.	.	.	.	.	.
32GG/	.	.	.	.	.	.	.	.
32GGG/	.	.	.	.	.	.	.	.
32GG/	.	.	.	.	.	.	.	.
32GGG/	.	.	.	.	.	.	.	.
32GG/	.	.	.	.	.	.	.	.
32GGG/	.	.	.	.	.	.	.	.
32GG/	.	.	.	.	.	.	.	.
32GGG/	.	.	.	.	.	.	.	.
32GG/	.	.	.	.	.	.	.	.
32GGG/	.	.	.	.	.	.	.	.
32GG/	.	.	.	.	.	.	.	.
32GGG/	.	.	.	.	.	.	.	.
32GG/	.	.	.	.	.	.	.	.
32GGG/	.	.	.	.	.	.	.	.
32GG/	.	.	.	.	.	.	.	.
32GGG/	.	.	.	.	.	.	.	.
32GG/	.	.	.	.	.	.	.	.
32GGG/	.	.	.	.	.	.	.	.
32GG/	.	.	.	.	.	.	.	.
32GGG/	.	.	.	.	.	.	.	.
32GG/	.	.	.	.	.	.	.	.
32GGG/	.	.	.	.	.	.	.	.
32GG/	.	.	.	.	.	.	.	.
32GGG/	.	.	.	.	.	.	.	.
32GG/JJJ	.	[[	.	.	.	.	.	.
!!LO:LB:g=original
=239	=239	=239	=239	=239	=239	=239	=239	=239
!	!	!	!LO:TX:a:B:t=(mówi coś Proculowi do ucha)	!	!	!LO:TX:a:B:t=Proculus.	!	!
32GGG/LLL	2r	.	1r	.	.	1r	.	.
32GG/	.	.	.	.	.	.	.	.
32GGG/	.	.	.	.	.	.	.	.
32GG/	.	.	.	.	.	.	.	.
32GGG/	.	.	.	.	.	.	.	.
32GG/	.	.	.	.	.	.	.	.
32GGG/	.	.	.	.	.	.	.	.
32GG/	.	.	.	.	.	.	.	.
32GGG/	.	.	.	.	.	.	.	.
32GG/	.	.	.	.	.	.	.	.
32GGG/	.	.	.	.	.	.	.	.
32GG/	.	.	.	.	.	.	.	.
32GGG/	.	.	.	.	.	.	.	.
32GG/	.	.	.	.	.	.	.	.
32GGG/	.	.	.	.	.	.	.	.
32GG/	.	.	.	.	.	.	.	.
32GGG/	4r	.	.	.	.	.	.	.
32GG/	.	.	.	.	.	.	.	.
32GGG/	.	.	.	.	.	.	.	.
32GG/	.	.	.	.	.	.	.	.
32GGG/	.	.	.	.	.	.	.	.
32GG/	.	.	.	.	.	.	.	.
32GGG/	.	.	.	.	.	.	.	.
32GG/JJJ	.	.	.	.	.	.	.	.
*Xtremolo	*	*	*	*	*	*	*	*
8.r	8.r	.	.	.	.	.	.	.
16C 16CC/	16gg 16ee- 16cc 16g\	ff	.	.	.	.	.	.
=240||	=240||	=240||	=240||	=240||	=240||	=240||	=240||	=240||
!!!OMD: Maestoso.
!	!LO:TX:a:B:t=Maestoso.	!	!	!	!	!	!	!
4..F 4..FF^^</	4..aa- 4..ff 4..cc 4..a-^^\	.	1r	.	.	1r	.	.
16BB- 16BBB-/	16bb- 16ff 16dd-X 16b-\	.	.	.	.	.	.	.
4..D-X 4..DD-X^^</	4..aa- 4..ff-X 4..dd- 4..a-^^\	.	.	.	.	.	.	.
16G 16GG/	16gg 16ee- 16bn 16g\	.	.	.	.	.	.	.
=241	=241	=241	=241	=241	=241	=241	=241	=241
4..F 4..FF^^</	4..aa- 4..ffn 4..cc 4..a-^^\	.	2r	.	.	2r	.	.
16AA- 16AAA-/	16ccc 16aa- 16een 16cc\	.	.	.	.	.	.	.
[2AA- [2AAA-^^</	[2ccc [2aa- [2ee [2cc^^\	.	4r	.	.	4r	.	.
!	!	!	!	!	!	!	!	!LO:DY:a:rj
.	.	.	4c\	Mej	.	4c\	Mej	f
=242	=242	=242	=242	=242	=242	=242	=242	=242
4AA-] 4AAA-/]	4ccc] 4aa-] 4ee] 4cc\]	.	2A-\	zemś-	.	2A-\	zemś-	.
4r	4r	.	.	.	.	.	.	.
2r	2r	.	2c\	-cie	.	2c\	-cie	.
=243	=243	=243	=243	=243	=243	=243	=243	=243
2r	2r	.	(4.En\	w służ-	.	(4.En\	w służ-	.
.	.	.	8G\)	.	.	8G\)	.	.
4r	4r	.	2F\	-bę	.	2F\	-bę	.
8.r	8.r	.	.	.	.	.	.	.
16A- 16AA-\	16aa- 16ff 16cc 16a-\	.	.	.	.	.	.	.
=244	=244	=244	=244	=244	=244	=244	=244	=244
4..G 4..GG/	4..bb- 4..gg 4..dd-X 4..b-\	.	(4d-X\	od-	.	(4d-X\	od-	.
.	.	.	4G\)	.	.	4G\)	.	.
16F 16FF/	16ccc 16aa- 16ff 16cc\	.	.	.	.	.	.	.
4F 4FF/	4ccc 4aa- 4ff 4cc\	.	4A-\	-dał	.	4A-\	-dał	.
4r	4r	.	(8Bn\L	się	.	(8Bn\L	się	.
.	.	.	8c\J)	.	.	8c\J)	.	.
!!LO:LB:g=original
=245	=245	=245	=245	=245	=245	=245	=245	=245
4r	4r	.	(2dn\	sam	.	(2dn\	sam	.
8.r	8.r	.	.	.	.	.	.	.
16A- 16AA-\	16dddn 16ccc 16ff 16ddn\	.	.	.	.	.	.	.
4..A- 4..AA-\	4..ddd 4..ccc 4..ff 4..dd\	.	4d\)	.	.	4d\)	.	.
.	.	.	4r	.	.	4r	.	.
16G 16GG/	16ddd 16ccc 16ff 16dd\	.	.	.	.	.	.	.
=246	=246	=246	=246	=246	=246	=246	=246	=246
4F 4FF^^</	4eee- 4ccc 4aa- 4ee-^^\	.	(4c\	Ja	.	2e-\	Ja	.
4r	4r	.	4B-X\)	.	.	.	.	.
4A- 4AA-^^\	4ccc 4aa- 4ee- 4cc^^\	.	4A-\	jej	.	4.c\	jej	.
4r	4r	.	4G\	do-	.	.	.	.
.	.	.	.	.	.	8d\	do-	.
=247	=247	=247	=247	=247	=247	=247	=247	=247
4D 4DD^^</	4eee- 4ccc 4aan 4ff#X 4ee-^^\	.	(4.F#X\	-ko-	.	(4.e-\	-ko-	.
4r	4r	.	.	.	.	.	.	.
.	.	.	8G\)	.	.	8d\)	.	.
2r	2r;	.	4An\	-nam,	.	4c\	-nam,	.
.	.	.	4r;	.	.	4r;	.	.
=248	=248	=248	=248	=248	=248	=248	=248	=248
!	!	!	!	!	!LO:DY:a:rj	!	!	!LO:DY:a:rj
2GG 2GGG^^</	2gg 2ee- 2bn 2g^^\	.	2.Bn\	bia-	ff	2.g\	bia-	ff
2r	2r	.	.	.	.	.	.	.
.	.	.	4B\	-da	.	4e-\	-da	.
=249||	=249||	=249||	=249||	=249||	=249||	=249||	=249||	=249||
!!!OMD: Allegro molto.
!	!LO:TX:a:B:t=Allegro molto.	!	!	!	!	!	!	!
8.r	8.r	.	[1c	wam!	.	[1c	wam!	.
16C 16CC/	16gg 16ee- 16cc 16g\	ff	.	.	.	.	.	.
!	!LO:TX:b:i:t=marcato	!	!	!	!	!	!	!
8.FL 8.FF/	8.aa-L 8.ff 8.cc 8.a-\	.	.	.	.	.	.	.
16CJk 16CC/	16bb-Jk 16gg 16dd-X 16b-\	.	.	.	.	.	.	.
8.FL 8.FF/	8.aa-L 8.ff 8.cc 8.a-\	.	.	.	.	.	.	.
16GJk 16GG/	16ggJk 16een 16b- 16g\	.	.	.	.	.	.	.
8.FL 8.FF/	8.aa-L 8.ff 8.cc 8.a-\	.	.	.	.	.	.	.
16CJk 16CC/	16cccJk 16gg 16ee-X 16cc\	.	.	.	.	.	.	.
=250	=250	=250	=250	=250	=250	=250	=250	=250
8.CL 8.CC/	8.cccL 8.gg 8.ee- 8.cc\	.	4c\]	.	.	4c\]	.	.
16A-Jk 16AA-/	16cccJk 16aa- 16ee- 16cc\	.	.	.	.	.	.	.
!	!	!	!LO:TX:a:B:t=(wychodzą)	!	!	!	!	!
8.GL 8.GG/	8.dddL 8.bbn 8.gg 8.dd\	.	4r	.	.	4r	.	.
16E-Jk 16EE-/	16eee-Jk 16ccc 16gg 16ee-\	.	.	.	.	.	.	.
8.GL 8.GG/	8.dddL 8.bb 8.gg 8.dd\	.	2r	.	.	2r	.	.
16A-Jk 16AA-/	16cccJk 16aa- 16ee- 16cc\	.	.	.	.	.	.	.
8.GL 8.GG/	8.eee-L 8.bbn 8.gg 8.ee-\	.	.	.	.	.	.	.
16CJk 16CC/	16gggJk 16eee- 16ccc 16gg\	.	.	.	.	.	.	.
!!LO:LB:g=original
=251	=251	=251	=251	=251	=251	=251	=251	=251
4AA- 4AAA-/	8.gggL 8.eee- 8.ccc 8.gg\	.	1ryy	.	.	1ryy	.	.
.	16eee-Jk 16ccc 16gg 16ee-\	.	.	.	.	.	.	.
4A- 4AA-\	4eee- 4ccc 4gg 4ee-\	.	.	.	.	.	.	.
[4F [4FF/	8.eee-L 8.ccc 8.aa- 8.ee-\	.	.	.	.	.	.	.
.	16cccJk 16aa- 16ee- 16cc\	.	.	.	.	.	.	.
8.F]L 8.FF/]	8.cccL 8.aa- 8.ee- 8.cc\	.	.	.	.	.	.	.
16FJk 16FF/	16cccJk 16aa- 16ee- 16cc\	.	.	.	.	.	.	.
=252	=252	=252	=252	=252	=252	=252	=252	=252
8.DL 8.DD/	8.dddL 8.aa- 8.ff 8.dd\	.	1ryy	.	.	1ryy	.	.
16GJk 16GG/	16bb-Jk 16gg 16dd 16b-\	.	.	.	.	.	.	.
8.GL 8.GG/	8.bb-L 8.gg 8.dd 8.b-\	.	.	.	.	.	.	.
16CJk 16CC/	16cccJk 16aa- 16ee- 16cc\	.	.	.	.	.	.	.
8.CL 8.CC/	8.cccL 8.aa- 8.ee- 8.cc\	.	.	.	.	.	.	.
16FJk 16FF/	16aa-Jk 16ee- 16cc 16a-\	.	.	.	.	.	.	.
8.FL 8.FF/	8.aa-L 8.ee- 8.cc 8.a-\	.	.	.	.	.	.	.
16FJk 16FF/	16aa-Jk 16ee- 16cc 16a-\	.	.	.	.	.	.	.
=253	=253	=253	=253	=253	=253	=253	=253	=253
8.CL 8.CC/	8.bb-L 8.ee- 8.cc 8.b-\	.	1ryy	.	.	1ryy	.	.
16FJk 16FF/	16aa-Jk 16ee- 16cc 16a-\	.	.	.	.	.	.	.
8.CL 8.CC/	8.bb-L 8.ee- 8.cc 8.b-\	.	.	.	.	.	.	.
16FJk 16FF/	16aa-Jk 16ee- 16cc 16a-\	.	.	.	.	.	.	.
8.CL 8.CC/	8.bb-L 8.ee- 8.cc 8.b-\	.	.	.	.	.	.	.
16FJk 16FF/	16aa-Jk 16ee- 16cc 16a-\	.	.	.	.	.	.	.
8.CL 8.CC/	8.bb-L 8.ee- 8.cc 8.b-\	.	.	.	.	.	.	.
16FFJk 16FFF/	16cccJk 16aa- 16ff 16cc\	.	.	.	.	.	.	.
=254	=254	=254	=254	=254	=254	=254	=254	=254
8FF 8FFF^^</	8ccc 8aa- 8ff 8cc^^\	.	1ryy	.	.	1ryy	.	.
16r	16r	.	.	.	.	.	.	.
16c\	16cc\	.	.	.	.	.	.	.
8c^^\	8cc^^\	.	.	.	.	.	.	.
8r	8r	.	.	.	.	.	.	.
8A- 8AA-^^\	8ccc 8aa- 8ee- 8cc^^\	.	.	.	.	.	.	.
16r	16r	.	.	.	.	.	.	.
16c\	16cc\	.	.	.	.	.	.	.
8c^^\	8cc^^\	.	.	.	.	.	.	.
8r	8r	.	.	.	.	.	.	.
=255	=255	=255	=255	=255	=255	=255	=255	=255
8D 8DD^^</	8ddd 8aan 8ff#X 8dd^^\	.	1ryy	.	.	1ryy	.	.
16r	16r	.	.	.	.	.	.	.
16c\	16cc\	.	.	.	.	.	.	.
8c^^\	8cc^^\	.	.	.	.	.	.	.
8r	8r	.	.	.	.	.	.	.
8G 8GG^^</	8bbn 8gg 8ffn 8dd 8bn^^\	.	.	.	.	.	.	.
16r	16r	.	.	.	.	.	.	.
16G\	16g/	.	.	.	.	.	.	.
8G^^\	8g^^</	.	.	.	.	.	.	.
8r	8r	.	.	.	.	.	.	.
=256	=256	=256	=256	=256	=256	=256	=256	=256
4C 4CC^^</	4ccc 4gg 4ee- 4cc^^\	.	1ryy	.	.	1ryy	.	.
4r	4r	.	.	.	.	.	.	.
!LO:TX:b:B:t=KONIEC PROLOGU.	!	!	!	!	!	!	!	!
2r;	2r;	.	.	.	.	.	.	.
==	==	==	==	==	==	==	==	==
*-	*-	*-	*-	*-	*-	*-	*-	*-
!!!system-decoration: s1,s2{(s3,s4)}
!!!RDF**kern: > = above
!!!RDF**kern: < = below
!!!ENC: Berenika Jozajtis
!!!END: 2023-07-17
!!!ENC: Marta Lawrence
!!!END: 2023-07-21
!!!YEC: Copyright 2022 Narodowy Instytut Fryderyka Chopina (https://polishscores.org)
!!!YEM: License CC-BY-4.0 (https://creativecommons.org/licenses/by/4.0)
